; generated by Slic3r 0.7.3-dev on 2012-05-11 at 22:20:24

; layer_height = 0.3
; perimeters = 2
; solid_layers = 3
; fill_density = 0.2
; nozzle_diameter = 0.5
; filament_diameter = 2.9
; extrusion_multiplier = 0.9
; perimeter_speed = 30
; infill_speed = 90
; travel_speed = 130
; extrusion_width_ratio = 0
; scale = 1
; single wall width = 0.70mm

M104 S257 ; set temperature
M104 S0
M140 S115
M92 E335
G28
M190 S105
M140 S115
M109 S257 ; wait for temperature to be reached
G90 ; use absolute coordinates
G21 ; set units to millimeters
G92 E0 ; reset extrusion distance
M82 ; use absolute distances for extrusion
M107
G1 Z0.400 F7800.000
G1 X63.170 Y60.841
G1 F3600.000 E1.20000
G1 X86.450 Y49.751 F1080.000 E1.88989
G1 X86.850 Y49.611 E1.90123
G1 X91.900 Y48.531 E2.03939
G1 X92.100 Y48.501 E2.04480
G1 X92.520 Y48.461 E2.05609
G1 X97.470 Y48.461 E2.18852
G1 X97.890 Y48.501 E2.19981
G1 X103.140 Y49.611 E2.34337
G1 X103.540 Y49.751 E2.35471
G1 X127.030 Y60.941 E3.05082
G1 X127.430 Y61.181 E3.06330
G1 X127.810 Y61.461 E3.07593
G1 X128.320 Y61.941 E3.09467
G1 X128.620 Y62.301 E3.10720
G1 X128.760 Y62.491 E3.11352
G1 X129.000 Y62.881 E3.12577
G1 X129.210 Y63.301 E3.13833
G1 X129.390 Y63.731 E3.15080
G1 X129.560 Y64.411 E3.16956
G1 X129.630 Y64.871 E3.18200
G1 X129.630 Y85.121 E3.72377
G1 X129.560 Y85.581 E3.73622
G1 X129.390 Y86.261 E3.75497
G1 X129.110 Y86.901 E3.77366
G1 X129.000 Y87.111 E3.78000
G1 X128.760 Y87.501 E3.79225
G1 X128.620 Y87.691 E3.79857
G1 X128.320 Y88.051 E3.81111
G1 X127.810 Y88.531 E3.82984
G1 X127.430 Y88.811 E3.84247
G1 X127.030 Y89.051 E3.85495
G1 X103.530 Y100.231 E4.55119
G1 X103.340 Y100.301 E4.55661
G1 X102.740 Y100.471 E4.57329
G1 X98.100 Y101.461 E4.70022
G1 X97.470 Y101.531 E4.71718
G1 X92.520 Y101.531 E4.84962
G1 X91.890 Y101.461 E4.86657
G1 X87.050 Y100.421 E4.99902
G1 X86.650 Y100.301 E5.01019
G1 X62.960 Y89.051 E5.71183
G1 X62.560 Y88.811 E5.72431
G1 X62.180 Y88.531 E5.73693
G1 X61.670 Y88.051 E5.75567
G1 X61.370 Y87.691 E5.76821
G1 X61.230 Y87.501 E5.77452
G1 X60.990 Y87.111 E5.78677
G1 X60.780 Y86.691 E5.79934
G1 X60.600 Y86.261 E5.81181
G1 X60.430 Y85.581 E5.83056
G1 X60.360 Y85.121 E5.84301
G1 X60.360 Y64.871 E6.38477
G1 X60.430 Y64.411 E6.39722
G1 X60.600 Y63.731 E6.41598
G1 X60.880 Y63.091 E6.43467
G1 X60.990 Y62.881 E6.44101
G1 X61.230 Y62.491 E6.45326
G1 X61.370 Y62.301 E6.45957
G1 X61.670 Y61.941 E6.47211
G1 X62.180 Y61.461 E6.49085
G1 X62.560 Y61.181 E6.50348
G1 X62.960 Y60.941 E6.51596
G1 X63.076 Y60.885 E6.51938
G1 F3600.000 E5.31938
G92 E0
G1 X116.855 Y73.485 F7800.000
G1 F3600.000 E1.20000
G1 X119.223 Y71.597 F1080.000 E1.28105
G1 X122.177 Y72.271 E1.36209
G1 X123.491 Y75.000 E1.44314
G1 X122.177 Y77.729 E1.52418
G1 X119.223 Y78.403 E1.60523
G1 X116.855 Y76.515 E1.68627
G1 X116.855 Y73.590 E1.76452
G1 X117.474 Y73.784 F7800.000
G1 X119.376 Y72.267 F1080.000 E1.82960
G1 X121.748 Y72.808 E1.89469
G1 X122.803 Y75.000 E1.95977
G1 X121.748 Y77.192 E2.02485
G1 X119.376 Y77.733 E2.08993
G1 X117.474 Y76.216 E2.15502
G1 X117.474 Y73.888 E2.21730
G1 F3600.000 E1.01730
G92 E0
G1 X73.491 Y75.000 F7800.000
G1 F3600.000 E1.20000
G1 X72.177 Y77.729 F1080.000 E1.28105
G1 X69.223 Y78.403 E1.36209
G1 X66.855 Y76.515 E1.44314
G1 X66.855 Y73.485 E1.52418
G1 X69.223 Y71.597 E1.60523
G1 X72.177 Y72.271 E1.68627
G1 X73.446 Y74.906 E1.76452
G1 X72.803 Y75.000 F7800.000
G1 X71.748 Y77.192 F1080.000 E1.82960
G1 X69.376 Y77.733 E1.89469
G1 X67.474 Y76.216 E1.95977
G1 X67.474 Y73.784 E2.02485
G1 X69.376 Y72.267 E2.08993
G1 X71.748 Y72.808 E2.15502
G1 X72.758 Y74.906 E2.21730
G1 F3600.000 E1.01730
G92 E0
G1 X79.511 Y75.000 F7800.000
G1 F3600.000 E1.20000
G1 X79.849 Y71.780 F1080.000 E1.28663
G1 X80.850 Y68.700 E1.37326
G1 X82.469 Y65.896 E1.45990
G1 X84.638 Y63.488 E1.54660
G1 X87.255 Y61.586 E1.63316
G1 X90.214 Y60.269 E1.71979
G1 X93.381 Y59.596 E1.80643
G1 X96.619 Y59.596 E1.89306
G1 X99.786 Y60.269 E1.97969
G1 X102.745 Y61.586 E2.06632
G1 X105.364 Y63.489 E2.15296
G1 X107.531 Y65.896 E2.23959
G1 X109.150 Y68.700 E2.32622
G1 X110.151 Y71.780 E2.41286
G1 X110.489 Y75.003 E2.49956
G1 X110.151 Y78.220 E2.58612
G1 X109.150 Y81.300 E2.67275
G1 X107.531 Y84.104 E2.75938
G1 X105.364 Y86.511 E2.84601
G1 X102.745 Y88.414 E2.93265
G1 X99.786 Y89.731 E3.01928
G1 X96.619 Y90.404 E3.10591
G1 X93.381 Y90.404 E3.19254
G1 X90.214 Y89.731 E3.27918
G1 X87.255 Y88.414 E3.36581
G1 X84.636 Y86.511 E3.45244
G1 X82.469 Y84.104 E3.53907
G1 X80.850 Y81.300 E3.62571
G1 X79.849 Y78.220 E3.71234
G1 X79.522 Y75.104 E3.79618
G1 X80.134 Y75.000 F7800.000
G1 X80.459 Y71.909 F1080.000 E3.87932
G1 X81.419 Y68.953 E3.96247
G1 X82.973 Y66.262 E4.04562
G1 X85.055 Y63.951 E4.12884
G1 X87.567 Y62.125 E4.21192
G1 X90.406 Y60.861 E4.29507
G1 X93.446 Y60.215 E4.37821
G1 X96.554 Y60.215 E4.46136
G1 X99.594 Y60.861 E4.54451
G1 X102.433 Y62.125 E4.62766
G1 X104.948 Y63.952 E4.71081
G1 X107.027 Y66.262 E4.79396
G1 X108.581 Y68.953 E4.87711
G1 X109.541 Y71.909 E4.96026
G1 X109.866 Y75.003 E5.04347
G1 X109.541 Y78.091 E5.12655
G1 X108.581 Y81.047 E5.20970
G1 X107.027 Y83.738 E5.29285
G1 X104.948 Y86.048 E5.37600
G1 X102.433 Y87.875 E5.45915
G1 X99.594 Y89.139 E5.54229
G1 X96.554 Y89.785 E5.62544
G1 X93.446 Y89.785 E5.70859
G1 X90.406 Y89.139 E5.79174
G1 X87.567 Y87.875 E5.87489
G1 X85.052 Y86.048 E5.95804
G1 X82.973 Y83.738 E6.04119
G1 X81.419 Y81.047 E6.12434
G1 X80.459 Y78.091 E6.20748
G1 X80.145 Y75.104 E6.28784
G1 F3600.000 E5.08784
G92 E0
G1 X76.068 Y84.032 F7800.000
G1 F3600.000 E1.20000
G1 X65.968 Y84.032 F1080.000 E1.47022
G1 X65.968 Y65.968 E1.95351
G1 X76.068 Y65.968 E2.22373
G1 X77.989 Y62.641 E2.32651
G1 X80.930 Y59.374 E2.44412
G1 X84.487 Y56.790 E2.56172
G1 X88.502 Y55.002 E2.67933
G1 X92.802 Y54.088 E2.79693
G1 X97.198 Y54.088 E2.91454
G1 X101.498 Y55.002 E3.03214
G1 X105.513 Y56.790 E3.14975
G1 X109.070 Y59.374 E3.26735
G1 X112.011 Y62.641 E3.38496
G1 X113.932 Y65.968 E3.48774
G1 X124.032 Y65.968 E3.75796
G1 X124.032 Y84.032 E4.24125
G1 X113.932 Y84.032 E4.51147
G1 X112.011 Y87.359 E4.61425
G1 X109.070 Y90.626 E4.73186
G1 X105.513 Y93.210 E4.84946
G1 X101.498 Y94.998 E4.96707
G1 X97.198 Y95.912 E5.08467
G1 X92.802 Y95.912 E5.20228
G1 X88.502 Y94.998 E5.31988
G1 X84.487 Y93.210 E5.43749
G1 X80.930 Y90.626 E5.55509
G1 X77.989 Y87.359 E5.67270
G1 X76.120 Y84.123 E5.77268
G1 X75.710 Y84.652 F7800.000
G1 X65.348 Y84.652 F1080.000 E6.04991
G1 X65.348 Y65.348 E6.56635
G1 X75.710 Y65.348 E6.84357
G1 X77.485 Y62.275 E6.93853
G1 X80.514 Y58.911 E7.05961
G1 X84.175 Y56.251 E7.18070
G1 X88.310 Y54.410 E7.30179
G1 X92.737 Y53.469 E7.42288
G1 X97.263 Y53.469 E7.54397
G1 X101.690 Y54.410 E7.66506
G1 X105.825 Y56.251 E7.78615
G1 X109.486 Y58.911 E7.90723
G1 X112.515 Y62.275 E8.02832
G1 X114.290 Y65.348 E8.12328
G1 X124.652 Y65.348 E8.40050
G1 X124.652 Y84.652 E8.91694
G1 X114.290 Y84.652 E9.19417
G1 X112.515 Y87.725 E9.28912
G1 X109.486 Y91.089 E9.41021
G1 X105.825 Y93.749 E9.53130
G1 X101.690 Y95.590 E9.65239
G1 X97.263 Y96.531 E9.77348
G1 X92.737 Y96.531 E9.89457
G1 X88.310 Y95.590 E10.01565
G1 X84.175 Y93.749 E10.13674
G1 X80.514 Y91.089 E10.25783
G1 X77.485 Y87.725 E10.37892
G1 X75.763 Y84.742 E10.47108
G1 X76.134 Y83.610 F7800.000
G1 X70.931 Y78.407 F2160.000 E10.67136
G1 X71.652 Y78.242 F7800.000
G1 X87.307 Y93.897 F2160.000 E11.27399
G1 X88.901 Y94.604 F7800.000
G1 X72.374 Y78.078 F2160.000 E11.91019
G1 X72.683 Y77.500 F7800.000
G1 X90.027 Y94.843 F2160.000 E12.57784
G1 X91.152 Y95.082 F7800.000
G1 X72.971 Y76.901 F2160.000 E13.27773
G1 X73.259 Y76.303 F7800.000
G1 X92.278 Y95.322 F2160.000 E14.00986
G1 X93.331 Y95.489 F7800.000
G1 X86.204 Y88.362 F2160.000 E14.28423
G1 X88.077 Y89.348 F7800.000
G1 X94.218 Y95.489 F2160.000 E14.52062
G1 X95.104 Y95.490 F7800.000
G1 X89.674 Y90.060 F2160.000 E14.72962
G1 X90.844 Y90.343 F7800.000
G1 X95.990 Y95.489 F2160.000 E14.92772
G1 X96.877 Y95.489 F7800.000
G1 X91.970 Y90.582 F2160.000 E15.11660
G1 X93.096 Y90.821 F7800.000
G1 X97.687 Y95.413 F2160.000 E15.29335
G1 X98.418 Y95.258 F7800.000
G1 X93.986 Y90.827 F2160.000 E15.46393
G1 X94.873 Y90.827 F7800.000
G1 X99.149 Y95.103 F2160.000 E15.62853
G1 X99.880 Y94.947 F7800.000
G1 X95.759 Y90.827 F2160.000 E15.78715
G1 X96.617 Y90.799 F7800.000
G1 X100.610 Y94.792 F2160.000 E15.94086
G1 X101.342 Y94.637 F7800.000
G1 X97.349 Y90.644 F2160.000 E16.09456
G1 X98.080 Y90.488 F7800.000
G1 X101.981 Y94.389 F2160.000 E16.24474
G1 X102.594 Y94.116 F7800.000
G1 X98.811 Y90.333 F2160.000 E16.39038
G1 X99.541 Y90.178 F7800.000
G1 X103.207 Y93.844 F2160.000 E16.53149
G1 X103.821 Y93.570 F7800.000
G1 X100.194 Y89.943 F2160.000 E16.67112
G1 X100.807 Y89.670 F7800.000
G1 X104.434 Y93.297 F2160.000 E16.81074
G1 X105.047 Y93.024 F7800.000
G1 X101.420 Y89.397 F2160.000 E16.95036
G1 X102.033 Y89.124 F7800.000
G1 X105.618 Y92.709 F2160.000 E17.08835
G1 X106.131 Y92.335 F7800.000
G1 X102.647 Y88.851 F2160.000 E17.22249
G1 X103.195 Y88.512 F7800.000
G1 X106.645 Y91.962 F2160.000 E17.35529
G1 X107.158 Y91.590 F7800.000
G1 X103.708 Y88.140 F2160.000 E17.48810
G1 X104.221 Y87.767 F7800.000
G1 X107.671 Y91.217 F2160.000 E17.62090
G1 X108.185 Y90.844 F7800.000
G1 X104.735 Y87.394 F2160.000 E17.75371
G1 X105.248 Y87.020 F7800.000
G1 X108.698 Y90.470 F2160.000 E17.88651
G1 X109.145 Y90.032 F7800.000
G1 X105.729 Y86.616 F2160.000 E18.01803
G1 X106.149 Y86.149 F7800.000
G1 X109.565 Y89.566 F2160.000 E18.14955
G1 X109.986 Y89.099 F7800.000
G1 X106.569 Y85.683 F2160.000 E18.28106
G1 X106.989 Y85.216 F7800.000
G1 X110.406 Y88.632 F2160.000 E18.41258
G1 X110.825 Y88.166 F7800.000
G1 X107.409 Y84.750 F2160.000 E18.54410
G1 X107.829 Y84.283 F7800.000
G1 X111.245 Y87.700 F2160.000 E18.67561
G1 X111.665 Y87.233 F7800.000
G1 X108.155 Y83.723 F2160.000 E18.81073
G1 X108.479 Y83.162 F7800.000
G1 X111.998 Y86.681 F2160.000 E18.94619
G1 X112.323 Y86.119 F7800.000
G1 X108.804 Y82.600 F2160.000 E19.08164
G1 X109.129 Y82.038 F7800.000
G1 X112.647 Y85.557 F2160.000 E19.21710
G1 X112.972 Y84.995 F7800.000
G1 X109.453 Y81.476 F2160.000 E19.35255
G1 X109.693 Y80.830 F7800.000
G1 X113.296 Y84.433 F2160.000 E19.49125
G1 X113.621 Y83.871 F7800.000
G1 X109.910 Y80.161 F2160.000 E19.63407
G1 X110.128 Y79.492 F7800.000
G1 X114.246 Y83.610 F2160.000 E19.79259
G1 X115.132 Y83.610 F7800.000
G1 X110.345 Y78.823 F2160.000 E19.97685
G1 X110.562 Y78.154 F7800.000
G1 X116.018 Y83.610 F2160.000 E20.18687
G1 X116.905 Y83.610 F7800.000
G1 X110.647 Y77.352 F2160.000 E20.42775
G1 X110.732 Y76.550 F7800.000
G1 X117.791 Y83.610 F2160.000 E20.69951
G1 X118.677 Y83.610 F7800.000
G1 X110.815 Y75.748 F2160.000 E21.00214
G1 X110.900 Y74.946 F7800.000
G1 X119.563 Y83.610 F2160.000 E21.33565
G1 X120.450 Y83.610 F7800.000
G1 X110.829 Y73.989 F2160.000 E21.70600
G1 X110.725 Y72.998 F7800.000
G1 X121.337 Y83.609 F2160.000 E22.11447
G1 X122.222 Y83.610 F7800.000
G1 X110.621 Y72.009 F2160.000 E22.56106
G1 X110.376 Y70.877 F7800.000
G1 X116.432 Y76.933 F2160.000 E22.79422
G1 X116.417 Y76.918 F7800.000
G1 X123.109 Y83.610 F2160.000 E23.05183
G1 X123.610 Y83.224 F7800.000
G1 X119.190 Y78.804 F2160.000 E23.22198
G1 X119.911 Y78.640 F7800.000
G1 X123.609 Y82.338 F2160.000 E23.36435
G1 X123.610 Y81.452 F7800.000
G1 X120.633 Y78.475 F2160.000 E23.47894
G1 X121.355 Y78.310 F7800.000
G1 X123.610 Y80.565 F2160.000 E23.56576
G1 X123.610 Y79.679 F7800.000
G1 X122.076 Y78.145 F2160.000 E23.62479
G1 X122.563 Y77.747 F7800.000
G1 X123.610 Y78.793 F2160.000 E23.66506
G1 X123.610 Y77.907 F7800.000
G1 X122.883 Y77.180 F2160.000 E23.69302
G1 X123.610 Y72.589 F7800.000
G1 X117.411 Y66.390 F2160.000 E23.93163
G1 X116.525 Y66.390 F7800.000
G1 X121.847 Y71.712 F2160.000 E24.13650
G1 X120.699 Y71.450 F7800.000
G1 X115.639 Y66.390 F2160.000 E24.33128
G1 X114.752 Y66.390 F7800.000
G1 X119.550 Y71.188 F2160.000 E24.51597
G1 X118.895 Y71.420 F7800.000
G1 X113.866 Y66.391 F2160.000 E24.70958
G1 X113.103 Y65.628 F7800.000
G1 X104.290 Y56.815 F2160.000 E25.04885
G1 X102.693 Y56.103 F7800.000
G1 X118.403 Y71.813 F2160.000 E25.65359
G1 X117.909 Y72.206 F7800.000
G1 X101.099 Y55.396 F2160.000 E26.30072
G1 X99.973 Y55.157 F7800.000
G1 X117.416 Y72.600 F2160.000 E26.97218
G1 X116.924 Y72.992 F7800.000
G1 X98.848 Y54.917 F2160.000 E27.66799
G1 X97.722 Y54.678 F7800.000
G1 X116.433 Y73.388 F2160.000 E28.38824
G1 X116.432 Y74.275 F7800.000
G1 X108.312 Y66.154 F2160.000 E28.70082
G1 X109.522 Y68.251 F7800.000
G1 X116.432 Y75.161 F2160.000 E28.96682
G1 X116.433 Y76.047 F7800.000
G1 X109.949 Y69.563 F2160.000 E29.21640
G1 X111.893 Y63.531 F7800.000
G1 X106.796 Y58.434 F2160.000 E29.41258
G1 X103.796 Y61.638 F7800.000
G1 X96.669 Y54.511 F2160.000 E29.68695
G1 X95.782 Y54.511 F7800.000
G1 X101.923 Y60.652 F2160.000 E29.92334
G1 X100.326 Y59.940 F7800.000
G1 X94.896 Y54.510 F2160.000 E30.13234
G1 X94.010 Y54.511 F7800.000
G1 X99.156 Y59.657 F2160.000 E30.33044
G1 X98.030 Y59.418 F7800.000
G1 X93.123 Y54.511 F2160.000 E30.51932
G1 X92.313 Y54.586 F7800.000
G1 X96.905 Y59.178 F2160.000 E30.69607
G1 X96.013 Y59.173 F7800.000
G1 X91.582 Y54.742 F2160.000 E30.86665
G1 X90.851 Y54.897 F7800.000
G1 X95.127 Y59.173 F2160.000 E31.03125
G1 X94.240 Y59.173 F7800.000
G1 X90.120 Y55.053 F2160.000 E31.18987
G1 X89.389 Y55.208 F7800.000
G1 X93.382 Y59.201 F2160.000 E31.34358
G1 X92.651 Y59.356 F7800.000
G1 X88.658 Y55.363 F2160.000 E31.49729
G1 X88.019 Y55.611 F7800.000
G1 X91.920 Y59.512 F2160.000 E31.64746
G1 X91.189 Y59.667 F7800.000
G1 X87.406 Y55.884 F2160.000 E31.79310
G1 X86.793 Y56.157 F7800.000
G1 X90.459 Y59.822 F2160.000 E31.93421
G1 X89.806 Y60.057 F7800.000
G1 X86.179 Y56.430 F2160.000 E32.07383
G1 X85.566 Y56.703 F7800.000
G1 X89.193 Y60.330 F2160.000 E32.21346
G1 X88.580 Y60.603 F7800.000
G1 X84.953 Y56.976 F2160.000 E32.35308
G1 X84.382 Y57.291 F7800.000
G1 X87.967 Y60.876 F2160.000 E32.49107
G1 X87.353 Y61.149 F7800.000
G1 X83.869 Y57.665 F2160.000 E32.62520
G1 X83.355 Y58.038 F7800.000
G1 X86.805 Y61.488 F2160.000 E32.75801
G1 X86.292 Y61.860 F7800.000
G1 X82.842 Y58.410 F2160.000 E32.89081
G1 X82.329 Y58.783 F7800.000
G1 X85.779 Y62.233 F2160.000 E33.02362
G1 X85.265 Y62.607 F7800.000
G1 X81.815 Y59.157 F2160.000 E33.15643
G1 X81.302 Y59.529 F7800.000
G1 X84.752 Y62.979 F2160.000 E33.28923
G1 X84.271 Y63.385 F7800.000
G1 X80.855 Y59.968 F2160.000 E33.42076
G1 X80.434 Y60.435 F7800.000
G1 X83.851 Y63.851 F2160.000 E33.55229
G1 X83.431 Y64.318 F7800.000
G1 X80.014 Y60.901 F2160.000 E33.68382
G1 X79.595 Y61.367 F7800.000
G1 X83.011 Y64.784 F2160.000 E33.81534
G1 X82.591 Y65.250 F7800.000
G1 X79.175 Y61.834 F2160.000 E33.94686
G1 X78.755 Y62.300 F7800.000
G1 X82.171 Y65.717 F2160.000 E34.07837
G1 X81.844 Y66.277 F7800.000
G1 X78.334 Y62.767 F2160.000 E34.21349
G1 X78.002 Y63.319 F7800.000
G1 X81.520 Y66.838 F2160.000 E34.34894
G1 X81.196 Y67.400 F7800.000
G1 X77.677 Y63.881 F2160.000 E34.48440
G1 X77.352 Y64.443 F7800.000
G1 X80.871 Y67.962 F2160.000 E34.61986
G1 X80.547 Y68.524 F7800.000
G1 X77.029 Y65.005 F2160.000 E34.75531
G1 X76.704 Y65.567 F7800.000
G1 X80.307 Y69.170 F2160.000 E34.89401
G1 X80.089 Y69.839 F7800.000
G1 X76.379 Y66.129 F2160.000 E35.03683
G1 X75.754 Y66.390 F7800.000
G1 X79.872 Y70.508 F2160.000 E35.19535
G1 X79.655 Y71.177 F7800.000
G1 X74.868 Y66.390 F2160.000 E35.37961
G1 X73.982 Y66.390 F7800.000
G1 X79.437 Y71.846 F2160.000 E35.58963
G1 X79.353 Y72.648 F7800.000
G1 X73.095 Y66.390 F2160.000 E35.83051
G1 X72.209 Y66.391 F7800.000
G1 X79.268 Y73.450 F2160.000 E36.10227
G1 X79.184 Y74.252 F7800.000
G1 X71.323 Y66.390 F2160.000 E36.40490
G1 X70.436 Y66.390 F7800.000
G1 X79.100 Y75.054 F2160.000 E36.73840
G1 X79.170 Y76.011 F7800.000
G1 X69.550 Y66.390 F2160.000 E37.10874
G1 X68.664 Y66.390 F7800.000
G1 X79.275 Y77.001 F2160.000 E37.51720
G1 X79.379 Y77.991 F7800.000
G1 X67.778 Y66.390 F2160.000 E37.96379
G1 X66.891 Y66.390 F7800.000
G1 X72.321 Y71.821 F2160.000 E38.17283
G1 X72.753 Y72.252 F7800.000
G1 X79.624 Y79.124 F2160.000 E38.43734
G1 X80.051 Y80.437 F7800.000
G1 X73.576 Y73.962 F2160.000 E38.68659
G1 X73.835 Y75.107 F7800.000
G1 X80.478 Y81.749 F2160.000 E38.94229
G1 X81.688 Y83.846 F7800.000
G1 X73.547 Y75.705 F2160.000 E39.25567
