; generated by Slic3r 0.7.3-dev on 2012-05-11 at 19:41:22

; layer_height = 0.3
; perimeters = 2
; solid_layers = 3
; fill_density = 0.5
; nozzle_diameter = 0.5
; filament_diameter = 2.9
; extrusion_multiplier = 0.94
; perimeter_speed = 30
; infill_speed = 90
; travel_speed = 130
; extrusion_width_ratio = 0
; scale = 1
; single wall width = 0.70mm

M104 S257 ; set temperature
M104 S0
M140 S115
M92 E335
G28
M190 S105
M140 S115
M109 S257 ; wait for temperature to be reached
G90 ; use absolute coordinates
G21 ; set units to millimeters
G92 E0 ; reset extrusion distance
M82 ; use absolute distances for extrusion
M107
G1 Z0.400 F7800.000
G1 X80.130 Y59.283
G1 F3600.000 E1.20000
G1 X80.420 Y58.983 F1080.000 E1.21166
G1 X80.740 Y58.703 E1.22354
G1 X84.080 Y56.293 E1.33863
G1 X84.450 Y56.093 E1.35038
G1 X88.010 Y54.513 E1.45922
G1 X88.400 Y54.373 E1.47079
G1 X92.410 Y53.503 E1.58545
G1 X93.040 Y53.433 E1.60316
G1 X96.950 Y53.433 E1.71242
G1 X97.580 Y53.503 E1.73013
G1 X101.590 Y54.373 E1.84479
G1 X101.980 Y54.513 E1.85637
G1 X105.540 Y56.093 E1.96520
G1 X105.910 Y56.293 E1.97696
G1 X109.250 Y58.703 E2.09205
G1 X109.570 Y58.983 E2.10393
G1 X112.320 Y62.033 E2.21868
G1 X112.680 Y62.523 E2.23567
G1 X114.640 Y65.893 E2.34461
G1 X114.900 Y66.483 E2.36262
G1 X116.100 Y70.193 E2.47158
G1 X116.150 Y70.393 E2.47734
G1 X116.230 Y70.813 E2.48929
G1 X116.630 Y74.683 E2.59800
G1 X116.640 Y75.093 E2.60946
G1 X116.230 Y79.173 E2.72404
G1 X116.150 Y79.593 E2.73599
G1 X114.900 Y83.503 E2.85069
G1 X114.820 Y83.703 E2.85671
G1 X114.540 Y84.273 E2.87446
G1 X112.570 Y87.633 E2.98330
G1 X112.450 Y87.803 E2.98911
G1 X109.720 Y90.863 E3.10370
G1 X109.410 Y91.163 E3.11575
G1 X106.080 Y93.583 E3.23078
G1 X105.910 Y93.693 E3.23644
G1 X105.550 Y93.893 E3.24794
G1 X101.980 Y95.483 E3.35715
G1 X101.590 Y95.623 E3.36873
G1 X97.570 Y96.483 E3.48360
G1 X96.950 Y96.553 E3.50103
G1 X93.040 Y96.553 E3.61029
G1 X92.420 Y96.483 E3.62772
G1 X88.400 Y95.623 E3.74260
G1 X87.810 Y95.403 E3.76019
G1 X84.440 Y93.893 E3.86338
G1 X84.080 Y93.693 E3.87489
G1 X80.580 Y91.163 E3.99556
G1 X80.130 Y90.713 E4.01335
G1 X77.540 Y87.803 E4.12220
G1 X77.200 Y87.293 E4.13933
G1 X75.350 Y84.083 E4.24286
G1 X75.170 Y83.703 E4.25461
G1 X73.890 Y79.793 E4.36957
G1 X73.840 Y79.593 E4.37533
G1 X73.760 Y79.173 E4.38728
G1 X73.360 Y75.303 E4.49599
G1 X73.350 Y74.893 E4.50745
G1 X73.760 Y70.813 E4.62203
G1 X73.840 Y70.393 E4.63398
G1 X75.090 Y66.483 E4.74868
G1 X75.170 Y66.283 E4.75470
G1 X75.350 Y65.893 E4.76671
G1 X77.310 Y62.523 E4.87564
G1 X77.670 Y62.033 E4.89263
G1 X80.060 Y59.361 E4.99281
G1 F3600.000 E3.79281
G92 E0
G1 X92.988 Y71.515 F7800.000
G1 F3600.000 E1.20000
G1 X95.699 Y71.036 F1080.000 E1.27693
G1 X98.083 Y72.413 E1.35386
G1 X99.025 Y75.000 E1.43078
G1 X97.991 Y77.839 E1.51520
G1 X93.046 Y77.839 E1.65339
G1 X92.719 Y78.166 E1.66630
G1 X92.445 Y77.839 E1.67822
G1 X92.445 Y77.839 E1.67822
G1 X91.218 Y76.377 E1.73156
G1 X91.218 Y73.623 E1.80849
G1 X92.920 Y71.595 E1.88250
G1 F3600.000 E0.68250
G92 E0
G1 X92.643 Y65.572 F7800.000
G1 F3600.000 E1.20000
G1 X92.534 Y64.228 F1080.000 E1.23766
G1 X93.542 Y61.864 E1.30948
G1 X95.533 Y60.238 E1.38130
G1 X98.051 Y59.724 E1.45313
G1 X100.520 Y60.439 E1.52495
G1 X102.374 Y62.220 E1.59677
G1 X103.188 Y64.658 E1.66859
G1 X102.775 Y67.195 E1.74042
G1 X101.987 Y68.244 E1.77711
G1 X103.096 Y67.479 E1.81477
G1 X105.647 Y67.169 E1.88659
G1 X108.051 Y68.080 E1.95841
G1 X109.755 Y70.004 E2.03024
G1 X110.370 Y72.500 E2.10206
G1 X109.755 Y74.996 E2.17388
G1 X108.051 Y76.920 E2.24570
G1 X105.647 Y77.831 E2.31753
G1 X104.344 Y77.673 E2.35422
G1 X105.561 Y78.250 E2.39188
G1 X107.106 Y80.305 E2.46370
G1 X107.518 Y82.842 E2.53552
G1 X106.704 Y85.280 E2.60734
G1 X104.850 Y87.061 E2.67917
G1 X102.381 Y87.776 E2.75099
G1 X99.863 Y87.262 E2.82281
G1 X97.872 Y85.636 E2.89463
G1 X97.357 Y84.428 E2.93133
G1 X97.466 Y85.772 E2.96898
G1 X96.458 Y88.136 E3.04081
G1 X94.467 Y89.762 E3.11263
G1 X91.949 Y90.276 E3.18445
G1 X91.549 Y90.160 E3.19608
G1 X91.549 Y90.160 E3.19608
G1 X89.480 Y89.561 E3.25627
G1 X87.626 Y87.780 E3.32810
G1 X86.812 Y85.342 E3.39992
G1 X87.225 Y82.805 E3.47174
G1 X88.013 Y81.756 E3.50843
G1 X86.904 Y82.521 E3.54609
G1 X84.353 Y82.831 E3.61792
G1 X81.949 Y81.920 E3.68974
G1 X80.245 Y79.996 E3.76156
G1 X79.630 Y77.500 E3.83338
G1 X80.245 Y75.004 E3.90521
G1 X81.949 Y73.080 E3.97703
G1 X84.353 Y72.169 E4.04885
G1 X85.656 Y72.327 E4.08554
G1 X84.439 Y71.750 E4.12320
G1 X82.894 Y69.695 E4.19502
G1 X82.482 Y67.158 E4.26685
G1 X83.296 Y64.720 E4.33867
G1 X85.150 Y62.939 E4.41049
G1 X87.619 Y62.224 E4.48231
G1 X90.137 Y62.738 E4.55414
G1 X92.128 Y64.364 E4.62596
G1 X92.602 Y65.476 E4.65973
G1 F3600.000 E3.45973
G92 E0
G1 X100.848 Y77.865 F7800.000
G1 F3600.000 E1.20000
G1 X103.112 Y77.774 F1080.000 E1.26329
G1 X105.158 Y78.745 E1.32658
G1 X106.519 Y80.555 E1.38987
G1 X106.882 Y82.791 E1.45316
G1 X106.165 Y84.939 E1.51645
G1 X104.531 Y86.508 E1.57974
G1 X102.356 Y87.139 E1.64303
G1 X100.136 Y86.686 E1.70632
G1 X98.382 Y85.253 E1.76961
G1 X97.494 Y83.169 E1.83290
G1 X97.676 Y80.912 E1.89619
G1 X98.887 Y78.997 E1.95948
G1 X100.758 Y77.917 E2.01984
G1 F3600.000 E0.81984
G92 E0
G1 X101.458 Y75.638 F7800.000
G1 F3600.000 E1.20000
G1 X100.405 Y73.632 F1080.000 E1.26329
G1 X100.405 Y71.368 E1.32658
G1 X101.458 Y69.362 E1.38987
G1 X103.322 Y68.075 E1.45316
G1 X105.570 Y67.802 E1.51645
G1 X107.688 Y68.606 E1.57974
G1 X109.190 Y70.301 E1.64303
G1 X109.732 Y72.500 E1.70632
G1 X109.190 Y74.699 E1.76961
G1 X107.688 Y76.394 E1.83290
G1 X105.570 Y77.198 E1.89619
G1 X103.322 Y76.925 E1.95948
G1 X101.544 Y75.697 E2.01984
G1 F3600.000 E0.81984
G92 E0
G1 X98.781 Y69.726 F7800.000
G1 F3600.000 E1.20000
G1 X98.535 Y69.716 F1080.000 E1.20690
G1 X98.535 Y69.716 E1.20690
G1 X96.518 Y69.635 E1.26329
G1 X94.557 Y68.503 E1.32658
G1 X93.346 Y66.588 E1.38987
G1 X93.164 Y64.331 E1.45316
G1 X94.052 Y62.247 E1.51645
G1 X95.806 Y60.814 E1.57974
G1 X98.025 Y60.361 E1.64303
G1 X100.201 Y60.992 E1.70632
G1 X101.835 Y62.561 E1.76961
G1 X102.552 Y64.709 E1.83290
G1 X102.188 Y66.945 E1.89619
G1 X100.828 Y68.755 E1.95948
G1 X98.876 Y69.681 E2.01984
G1 F3600.000 E0.81984
G92 E0
G1 X92.324 Y69.088 F7800.000
G1 F3600.000 E1.20000
G1 X91.113 Y71.003 F1080.000 E1.26329
G1 X89.152 Y72.135 E1.32658
G1 X86.888 Y72.226 E1.38987
G1 X84.842 Y71.255 E1.45316
G1 X83.481 Y69.445 E1.51645
G1 X83.118 Y67.209 E1.57974
G1 X83.835 Y65.061 E1.64303
G1 X85.469 Y63.492 E1.70632
G1 X87.644 Y62.861 E1.76961
G1 X89.864 Y63.314 E1.83290
G1 X91.618 Y64.747 E1.89619
G1 X92.506 Y66.831 E1.95948
G1 X92.332 Y68.984 E2.01984
G1 F3600.000 E0.81984
G92 E0
G1 X93.317 Y72.085 F7800.000
G1 F3600.000 E1.20000
G1 X95.584 Y71.686 F1080.000 E1.26433
G1 X97.578 Y72.837 E1.32866
G1 X98.365 Y75.000 E1.39298
G1 X97.558 Y77.219 E1.45898
G1 X92.790 Y77.219 E1.59221
G1 X92.759 Y77.250 E1.59341
G1 X92.734 Y77.219 E1.59451
G1 X92.734 Y77.219 E1.59451
G1 X91.838 Y76.151 E1.63348
G1 X91.838 Y73.849 E1.69781
G1 X93.250 Y72.165 E1.75921
G1 F3600.000 E0.55921
G92 E0
G1 X88.542 Y74.362 F7800.000
G1 F3600.000 E1.20000
G1 X89.595 Y76.368 F1080.000 E1.26329
G1 X89.595 Y78.632 E1.32658
G1 X88.542 Y80.638 E1.38987
G1 X86.678 Y81.925 E1.45316
G1 X84.430 Y82.198 E1.51645
G1 X82.312 Y81.394 E1.57974
G1 X80.810 Y79.699 E1.64303
G1 X80.268 Y77.500 E1.70632
G1 X80.810 Y75.301 E1.76961
G1 X82.312 Y73.606 E1.83290
G1 X84.430 Y72.802 E1.89619
G1 X86.678 Y73.075 E1.95948
G1 X88.456 Y74.303 E2.01984
G1 F3600.000 E0.81984
G92 E0
G1 X91.219 Y80.274 F7800.000
G1 F3600.000 E1.20000
G1 X93.482 Y80.365 F1080.000 E1.26329
G1 X95.443 Y81.497 E1.32658
G1 X96.654 Y83.412 E1.38987
G1 X96.836 Y85.669 E1.45316
G1 X95.948 Y87.753 E1.51645
G1 X94.194 Y89.186 E1.57974
G1 X91.975 Y89.639 E1.64303
G1 X89.799 Y89.008 E1.70632
G1 X88.165 Y87.439 E1.76961
G1 X87.448 Y85.291 E1.83290
G1 X87.812 Y83.055 E1.89619
G1 X89.172 Y81.245 E1.95948
G1 X91.124 Y80.319 E2.01984
G1 F3600.000 E0.81984
G92 E0
G1 X84.276 Y86.910 F7800.000
G1 F3600.000 E1.20000
G1 X82.034 Y84.420 F1080.000 E1.29362
G1 X80.359 Y81.519 E1.38725
G1 X79.323 Y78.332 E1.48087
G1 X78.973 Y75.000 E1.57449
G1 X79.323 Y71.668 E1.66812
G1 X80.359 Y68.481 E1.76174
G1 X82.034 Y65.580 E1.85536
G1 X84.276 Y63.090 E1.94899
G1 X86.987 Y61.120 E2.04261
G1 X90.047 Y59.758 E2.13623
G1 X93.325 Y59.061 E2.22986
G1 X96.675 Y59.061 E2.32348
G1 X99.953 Y59.758 E2.41710
G1 X103.013 Y61.120 E2.51073
G1 X105.724 Y63.090 E2.60435
G1 X107.966 Y65.580 E2.69797
G1 X109.641 Y68.481 E2.79160
G1 X110.677 Y71.668 E2.88522
G1 X111.027 Y75.000 E2.97885
G1 X110.677 Y78.332 E3.07247
G1 X109.641 Y81.519 E3.16609
G1 X107.966 Y84.420 E3.25972
G1 X105.724 Y86.910 E3.35334
G1 X103.013 Y88.880 E3.44696
G1 X99.953 Y90.242 E3.54059
G1 X96.675 Y90.939 E3.63421
G1 X93.325 Y90.939 E3.72783
G1 X90.047 Y90.242 E3.82146
G1 X86.987 Y88.880 E3.91508
G1 X84.360 Y86.972 E4.00578
G1 F3600.000 E2.80578
G92 E0
G1 X89.320 Y80.489 F7800.000
G1 F3600.000 E1.20000
G1 X90.214 Y78.785 F1080.000 E1.25377
G1 X90.214 Y76.215 E1.32559
G1 X89.020 Y73.939 E1.39741
G1 X87.406 Y72.825 E1.45219
G1 X89.329 Y72.748 E1.50596
G1 X91.555 Y71.463 E1.57778
G1 X92.929 Y69.290 E1.64960
G1 X93.086 Y67.336 E1.70438
G1 X94.115 Y68.963 E1.75814
G1 X96.341 Y70.248 E1.82997
G1 X98.909 Y70.351 E1.90179
G1 X98.909 Y70.351 E1.90179
G1 X99.154 Y70.361 E1.90864
G1 X99.154 Y70.235 E1.91217
G1 X100.680 Y69.511 E1.95936
G1 X99.786 Y71.215 E2.01313
G1 X99.786 Y73.785 E2.08495
G1 X100.980 Y76.061 E2.15678
G1 X102.594 Y77.175 E2.21155
G1 X100.671 Y77.252 E2.26532
G1 X98.445 Y78.537 E2.33714
G1 X97.071 Y80.710 E2.40897
G1 X96.914 Y82.664 E2.46374
G1 X95.885 Y81.037 E2.51751
G1 X93.659 Y79.752 E2.58933
G1 X91.091 Y79.649 E2.66115
G1 X89.414 Y80.444 E2.71301
G1 F3600.000 E1.51301
G92 E0
G1 X83.859 Y87.373 F7800.000
G1 F3600.000 E1.20000
G1 X81.530 Y84.786 F1080.000 E1.29726
G1 X79.790 Y81.772 E1.39452
G1 X78.714 Y78.462 E1.49179
G1 X78.350 Y75.000 E1.58905
G1 X78.714 Y71.538 E1.68631
G1 X79.790 Y68.228 E1.78357
G1 X81.530 Y65.214 E1.88083
G1 X83.859 Y62.627 E1.97810
G1 X86.675 Y60.581 E2.07536
G1 X89.855 Y59.165 E2.17262
G1 X93.260 Y58.441 E2.26988
G1 X96.740 Y58.441 E2.36714
G1 X100.145 Y59.165 E2.46441
G1 X103.325 Y60.581 E2.56167
G1 X106.141 Y62.627 E2.65893
G1 X108.470 Y65.214 E2.75619
G1 X110.210 Y68.228 E2.85346
G1 X111.286 Y71.538 E2.95072
G1 X111.650 Y75.000 E3.04798
G1 X111.286 Y78.462 E3.14524
G1 X110.210 Y81.772 E3.24250
G1 X108.470 Y84.786 E3.33977
G1 X106.141 Y87.373 E3.43703
G1 X103.325 Y89.419 E3.53429
G1 X100.145 Y90.835 E3.63155
G1 X96.740 Y91.559 E3.72881
G1 X93.260 Y91.559 E3.82608
G1 X89.855 Y90.835 E3.92334
G1 X86.675 Y89.419 E4.02060
G1 X83.944 Y87.435 E4.11494
G1 F3600.000 E2.91494
G92 E0
G1 X95.139 Y89.656 F7800.000
G1 F3600.000 E1.20000
G1 X96.000 Y90.517 F2160.000 E1.23817
G1 X96.923 Y90.492 F7800.000
G1 X95.660 Y89.229 F2160.000 E1.29414
G1 X96.182 Y88.803 F7800.000
G1 X97.705 Y90.326 F2160.000 E1.36163
G1 X98.486 Y90.160 F7800.000
G1 X96.704 Y88.377 F2160.000 E1.44063
G1 X97.018 Y87.744 F7800.000
G1 X99.268 Y89.994 F2160.000 E1.54038
G1 X100.035 Y89.813 F7800.000
G1 X97.301 Y87.079 F2160.000 E1.66155
G1 X97.584 Y86.414 F7800.000
G1 X100.690 Y89.521 F2160.000 E1.79925
G1 X101.346 Y89.229 F7800.000
G1 X99.853 Y87.735 F2160.000 E1.86544
G1 X101.044 Y87.978 F7800.000
G1 X102.002 Y88.937 F2160.000 E1.90792
G1 F3600.000 E0.70792
G92 E0
G1 X86.979 Y88.042 F7800.000
G1 F3600.000 E1.20000
G1 X81.722 Y82.785 F2160.000 E1.44543
G1 X82.631 Y82.718 F7800.000
G1 X86.810 Y86.897 F2160.000 E1.64051
G1 X86.388 Y85.500 F7800.000
G1 X84.147 Y83.259 F2160.000 E1.74513
G1 X85.017 Y83.153 F7800.000
G1 X86.525 Y84.661 F2160.000 E1.81549
G1 X86.661 Y83.821 F7800.000
G1 X85.887 Y83.048 F2160.000 E1.85162
G1 F3600.000 E0.65162
G92 E0
G1 X90.636 Y78.288 F7800.000
G1 F3600.000 E1.20000
G1 X91.586 Y79.238 F2160.000 E1.24067
G1 X92.550 Y79.277 F7800.000
G1 X90.636 Y77.363 F2160.000 E1.32263
G1 X92.941 Y78.426 F7800.000
G1 X93.844 Y79.329 F2160.000 E1.36528
G1 X93.758 Y78.261 F7800.000
G1 X95.926 Y80.429 F2160.000 E1.46768
G1 X96.865 Y80.386 F7800.000
G1 X94.741 Y78.261 F2160.000 E1.56804
G1 X95.723 Y78.261 F7800.000
G1 X97.245 Y79.784 F2160.000 E1.63997
G1 X97.626 Y79.182 F7800.000
G1 X96.705 Y78.261 F2160.000 E1.68349
G1 X98.823 Y76.626 F7800.000
G1 X99.640 Y77.443 F2160.000 E1.71795
G1 X100.221 Y77.108 F7800.000
G1 X99.068 Y75.954 F2160.000 E1.76660
G1 X99.312 Y75.283 F7800.000
G1 X100.688 Y76.659 F2160.000 E1.82466
G1 F3600.000 E0.62466
G92 E0
G1 X99.245 Y72.560 F7800.000
G1 F3600.000 E1.20000
G1 X97.407 Y70.722 F2160.000 E1.28123
G1 X98.392 Y70.761 F7800.000
G1 X99.363 Y71.732 F2160.000 E1.32415
G1 F3600.000 E0.12415
G92 E0
G1 X94.809 Y70.796 F7800.000
G1 F3600.000 E1.20000
G1 X93.326 Y69.313 F2160.000 E1.29277
G1 X92.876 Y70.024 F7800.000
G1 X93.822 Y70.970 F2160.000 E1.35194
G1 F3600.000 E0.15194
G92 E0
G1 X90.796 Y73.674 F7800.000
G1 F3600.000 E1.20000
G1 X89.928 Y72.807 F2160.000 E1.24782
G1 X89.247 Y73.200 F7800.000
G1 X90.796 Y74.749 F2160.000 E1.33318
G1 F3600.000 E0.13318
G92 E0
G1 X83.801 Y71.987 F7800.000
G1 F3600.000 E1.20000
G1 X80.638 Y68.824 F2160.000 E1.34438
G1 X80.945 Y68.167 F7800.000
G1 X82.424 Y69.647 F2160.000 E1.41190
G1 X82.237 Y68.496 F7800.000
G1 X81.297 Y67.556 F2160.000 E1.45480
G1 X80.402 Y69.551 F7800.000
G1 X83.103 Y72.252 F2160.000 E1.57808
G1 X82.405 Y72.517 F7800.000
G1 X80.165 Y70.278 F2160.000 E1.68027
G1 X79.929 Y71.005 F7800.000
G1 X81.733 Y72.810 F2160.000 E1.76262
G1 X81.281 Y73.320 F7800.000
G1 X79.719 Y71.758 F2160.000 E1.83390
G1 X79.627 Y72.630 F7800.000
G1 X80.828 Y73.831 F2160.000 E1.88871
G1 X80.376 Y74.342 F7800.000
G1 X79.536 Y73.502 F2160.000 E1.92705
G1 F3600.000 E0.72705
G92 E0
G1 X88.956 Y62.022 F7800.000
G1 F3600.000 E1.20000
G1 X87.998 Y61.063 F2160.000 E1.24248
G1 X88.654 Y60.771 F7800.000
G1 X90.147 Y62.265 F2160.000 E1.30868
G1 X89.310 Y60.479 F7800.000
G1 X92.416 Y63.586 F2160.000 E1.44638
G1 X92.699 Y62.921 F7800.000
G1 X89.965 Y60.187 F2160.000 E1.56755
G1 X90.732 Y60.006 F7800.000
G1 X92.982 Y62.256 F2160.000 E1.66729
G1 X93.296 Y61.623 F7800.000
G1 X91.514 Y59.840 F2160.000 E1.74629
G1 X92.295 Y59.674 F7800.000
G1 X93.818 Y61.197 F2160.000 E1.81378
G1 X94.340 Y60.770 F7800.000
G1 X93.077 Y59.508 F2160.000 E1.86974
G1 X94.000 Y59.483 F7800.000
G1 X94.861 Y60.344 F2160.000 E1.90792
G1 F3600.000 E0.70792
G92 E0
G1 X103.021 Y61.958 F7800.000
G1 F3600.000 E1.20000
G1 X108.278 Y67.215 F2160.000 E1.44543
G1 X107.369 Y67.282 F7800.000
G1 X103.191 Y63.103 F2160.000 E1.64051
G1 X103.612 Y64.500 F7800.000
G1 X105.853 Y66.741 F2160.000 E1.74512
G1 X104.983 Y66.847 F7800.000
G1 X103.475 Y65.339 F2160.000 E1.81549
G1 X103.339 Y66.179 F7800.000
G1 X104.113 Y66.952 F2160.000 E1.85162
G1 F3600.000 E0.65162
G92 E0
G1 X109.624 Y75.658 F7800.000
G1 F3600.000 E1.20000
G1 X110.464 Y76.498 F2160.000 E1.23834
G1 X110.373 Y77.370 F7800.000
G1 X109.172 Y76.169 F2160.000 E1.29315
G1 X108.719 Y76.680 F7800.000
G1 X110.281 Y78.242 F2160.000 E1.36444
G1 X110.071 Y78.995 F7800.000
G1 X108.267 Y77.191 F2160.000 E1.44679
G1 X107.595 Y77.483 F7800.000
G1 X109.835 Y79.722 F2160.000 E1.54898
G1 X109.598 Y80.449 F7800.000
G1 X106.897 Y77.748 F2160.000 E1.67226
G1 X106.198 Y78.013 F7800.000
G1 X109.362 Y81.176 F2160.000 E1.81664
G1 X109.055 Y81.833 F7800.000
G1 X107.576 Y80.353 F2160.000 E1.88416
G1 X107.763 Y81.504 F7800.000
G1 X108.703 Y82.444 F2160.000 E1.92705
M106 S225
G1 F3600.000 E0.72705
G92 E0
G1 Z0.700 F7800.000
G1 X97.991 Y77.839
G1 F3600.000 E1.20000
G1 X92.445 Y77.839 F1800.000 E1.35498
G1 X91.218 Y76.377 E1.40832
G1 X91.218 Y73.623 E1.48525
G1 X92.988 Y71.515 E1.56218
G1 X95.699 Y71.036 E1.63911
G1 X98.083 Y72.413 E1.71603
G1 X99.025 Y75.000 E1.79296
G1 X98.027 Y77.741 E1.87446
G1 F3600.000 E0.67446
G92 E0
G1 X104.344 Y77.673 F7800.000
G1 F3600.000 E1.20000
G1 X105.561 Y78.250 F1800.000 E1.23766
G1 X107.106 Y80.305 E1.30948
G1 X107.518 Y82.842 E1.38130
G1 X106.704 Y85.280 E1.45313
G1 X104.850 Y87.061 E1.52495
G1 X102.381 Y87.776 E1.59677
G1 X99.863 Y87.262 E1.66859
G1 X97.872 Y85.636 E1.74042
G1 X97.357 Y84.428 E1.77711
G1 X97.466 Y85.772 E1.81477
