; generated by Slic3r 0.7.3-dev on 2012-05-11 at 21:21:40

; layer_height = 0.3
; perimeters = 2
; solid_layers = 3
; fill_density = 0.2
; nozzle_diameter = 0.5
; filament_diameter = 2.9
; extrusion_multiplier = 0.9
; perimeter_speed = 30
; infill_speed = 90
; travel_speed = 130
; extrusion_width_ratio = 0
; scale = 1
; single wall width = 0.70mm

M104 S257 ; set temperature
M104 S0
M140 S115
M92 E335
G28
M190 S105
M140 S115
M109 S257 ; wait for temperature to be reached
G90 ; use absolute coordinates
G21 ; set units to millimeters
G92 E0 ; reset extrusion distance
M82 ; use absolute distances for extrusion
M107
G1 Z0.400 F7800.000
G1 X62.540 Y61.207
G1 F3600.000 E1.20000
G1 X80.020 Y49.407 F1080.000 E1.76424
G1 X80.640 Y49.077 E1.78303
G1 X85.590 Y46.877 E1.92795
G1 X85.840 Y46.787 E1.93506
G1 X91.590 Y45.547 E2.09243
G1 X91.790 Y45.517 E2.09784
G1 X92.210 Y45.477 E2.10913
G1 X97.780 Y45.477 E2.25815
G1 X98.200 Y45.517 E2.26944
G1 X104.060 Y46.757 E2.42969
G1 X104.650 Y46.977 E2.44653
G1 X109.360 Y49.077 E2.58450
G1 X109.820 Y49.317 E2.59838
G1 X127.650 Y61.347 E3.17383
G1 X127.840 Y61.497 E3.18030
G1 X128.200 Y61.827 E3.19337
G1 X128.530 Y62.187 E3.20643
G1 X128.680 Y62.377 E3.21291
G1 X128.820 Y62.577 E3.21944
G1 X129.070 Y62.997 E3.23252
G1 X129.360 Y63.667 E3.25205
G1 X129.440 Y63.907 E3.25882
G1 X129.600 Y64.617 E3.27829
G1 X129.630 Y64.857 E3.28476
G1 X129.630 Y85.137 E3.82733
G1 X129.600 Y85.377 E3.83380
G1 X129.440 Y86.087 E3.85327
G1 X129.360 Y86.327 E3.86004
G1 X129.070 Y86.997 E3.87957
G1 X128.820 Y87.417 E3.89265
G1 X128.680 Y87.617 E3.89918
G1 X128.530 Y87.807 E3.90566
G1 X128.200 Y88.167 E3.91872
G1 X127.840 Y88.497 E3.93179
G1 X127.650 Y88.647 E3.93827
G1 X109.970 Y100.587 E4.50904
G1 X109.510 Y100.847 E4.52317
G1 X104.450 Y103.087 E4.67122
G1 X104.050 Y103.227 E4.68256
G1 X98.400 Y104.437 E4.83714
G1 X98.200 Y104.467 E4.84256
G1 X97.780 Y104.507 E4.85384
G1 X92.210 Y104.507 E5.00286
G1 X91.790 Y104.467 E5.01415
G1 X85.940 Y103.227 E5.17414
G1 X85.540 Y103.087 E5.18547
G1 X80.480 Y100.847 E5.33352
G1 X80.020 Y100.587 E5.34766
G1 X62.340 Y88.647 E5.91843
G1 X62.150 Y88.497 E5.92490
G1 X61.790 Y88.167 E5.93797
G1 X61.460 Y87.807 E5.95104
G1 X61.310 Y87.617 E5.95751
G1 X61.170 Y87.417 E5.96404
G1 X60.920 Y86.997 E5.97712
G1 X60.630 Y86.327 E5.99665
G1 X60.550 Y86.087 E6.00342
G1 X60.390 Y85.377 E6.02289
G1 X60.360 Y85.137 E6.02936
G1 X60.360 Y64.857 E6.57193
G1 X60.390 Y64.617 E6.57840
G1 X60.550 Y63.907 E6.59787
G1 X60.630 Y63.667 E6.60464
G1 X60.920 Y62.997 E6.62417
G1 X61.170 Y62.577 E6.63725
G1 X61.310 Y62.377 E6.64378
G1 X61.460 Y62.187 E6.65026
G1 X61.790 Y61.827 E6.66332
G1 X62.150 Y61.497 E6.67639
G1 X62.340 Y61.347 E6.68287
G1 X62.454 Y61.267 E6.68660
G1 F3600.000 E5.48660
G92 E0
G1 X83.148 Y69.723 F7800.000
G1 F3600.000 E1.20000
G1 X84.504 Y67.375 F1080.000 E1.27256
G1 X86.319 Y65.359 E1.34512
G1 X88.513 Y63.765 E1.41768
G1 X90.991 Y62.662 E1.49024
G1 X93.644 Y62.098 E1.56280
G1 X96.356 Y62.098 E1.63536
G1 X99.009 Y62.662 E1.70792
G1 X101.487 Y63.765 E1.78048
G1 X103.681 Y65.359 E1.85304
G1 X105.496 Y67.375 E1.92560
G1 X106.852 Y69.723 E1.99816
G1 X107.690 Y72.303 E2.07072
G1 X107.973 Y75.000 E2.14328
G1 X107.690 Y77.697 E2.21584
G1 X106.852 Y80.277 E2.28840
G1 X105.496 Y82.625 E2.36096
G1 X103.681 Y84.641 E2.43352
G1 X101.487 Y86.235 E2.50608
G1 X99.009 Y87.338 E2.57864
G1 X96.356 Y87.902 E2.65120
G1 X93.644 Y87.902 E2.72376
G1 X90.991 Y87.338 E2.79632
G1 X88.513 Y86.235 E2.86888
G1 X86.319 Y84.641 E2.94144
G1 X84.504 Y82.625 E3.01400
G1 X83.148 Y80.277 E3.08656
G1 X82.310 Y77.697 E3.15912
G1 X82.027 Y75.000 E3.23168
G1 X82.310 Y72.303 E3.30424
G1 X83.116 Y69.823 E3.37400
G1 X83.717 Y69.977 F7800.000
G1 X85.008 Y67.741 F1080.000 E3.44308
G1 X86.736 Y65.822 E3.51215
G1 X88.825 Y64.304 E3.58123
G1 X91.184 Y63.254 E3.65030
G1 X93.709 Y62.717 E3.71938
G1 X96.291 Y62.717 E3.78846
G1 X98.816 Y63.254 E3.85753
G1 X101.175 Y64.304 E3.92661
G1 X103.264 Y65.822 E3.99569
G1 X104.992 Y67.741 E4.06476
G1 X106.283 Y69.977 E4.13384
G1 X107.080 Y72.432 E4.20291
G1 X107.350 Y75.000 E4.27199
G1 X107.080 Y77.568 E4.34107
G1 X106.283 Y80.023 E4.41014
G1 X104.992 Y82.259 E4.47922
G1 X103.264 Y84.178 E4.54829
G1 X101.175 Y85.696 E4.61737
G1 X98.816 Y86.746 E4.68645
G1 X96.291 Y87.283 E4.75552
G1 X93.709 Y87.283 E4.82460
G1 X91.184 Y86.746 E4.89367
G1 X88.825 Y85.696 E4.96275
G1 X86.736 Y84.178 E5.03183
G1 X85.008 Y82.259 E5.10090
G1 X83.717 Y80.023 E5.16998
G1 X82.920 Y77.568 E5.23906
G1 X82.650 Y75.000 E5.30813
G1 X82.920 Y72.432 E5.37721
G1 X83.685 Y70.076 E5.44349
G1 F3600.000 E4.24349
G92 E0
G1 X80.635 Y88.387 F7800.000
G1 F3600.000 E1.20000
G1 X81.971 Y90.700 F1080.000 E1.27145
G1 X80.635 Y93.013 E1.34291
G1 X77.965 Y93.013 E1.41436
G1 X76.629 Y90.700 E1.48581
G1 X77.965 Y88.387 E1.55727
G1 X80.531 Y88.387 E1.62593
G1 F3600.000 E0.42593
G92 E0
G1 X72.177 Y77.729 F7800.000
G1 F3600.000 E1.20000
G1 X69.223 Y78.403 F1080.000 E1.28105
G1 X66.855 Y76.515 E1.36209
G1 X66.855 Y73.485 E1.44314
G1 X69.223 Y71.597 E1.52418
G1 X72.177 Y72.271 E1.60523
G1 X73.491 Y75.000 E1.68627
G1 X72.222 Y77.635 E1.76452
G1 X71.748 Y77.192 F7800.000
G1 X69.376 Y77.733 F1080.000 E1.82960
G1 X67.474 Y76.216 E1.89469
G1 X67.474 Y73.784 E1.95977
G1 X69.376 Y72.267 E2.02485
G1 X71.748 Y72.808 E2.08993
G1 X72.803 Y75.000 E2.15502
G1 X71.793 Y77.098 E2.21730
G1 F3600.000 E1.01730
G92 E0
G1 X77.965 Y61.613 F7800.000
G1 F3600.000 E1.20000
G1 X76.629 Y59.300 F1080.000 E1.27145
G1 X77.965 Y56.987 E1.34291
G1 X80.635 Y56.987 E1.41436
G1 X81.971 Y59.300 E1.48581
G1 X80.635 Y61.613 E1.55727
G1 X78.069 Y61.613 E1.62593
G1 F3600.000 E0.42593
G92 E0
G1 X108.029 Y59.300 F7800.000
G1 F3600.000 E1.20000
G1 X109.365 Y56.987 F1080.000 E1.27145
G1 X112.035 Y56.987 E1.34291
G1 X113.371 Y59.300 E1.41436
G1 X112.035 Y61.613 E1.48581
G1 X109.365 Y61.613 E1.55727
G1 X108.081 Y59.391 E1.62593
G1 F3600.000 E0.42593
G92 E0
G1 X119.223 Y71.597 F7800.000
G1 F3600.000 E1.20000
G1 X122.177 Y72.271 F1080.000 E1.28105
G1 X123.491 Y75.000 E1.36209
G1 X122.177 Y77.729 E1.44314
G1 X119.223 Y78.403 E1.52418
G1 X116.855 Y76.515 E1.60523
G1 X116.855 Y73.485 E1.68627
G1 X119.141 Y71.662 E1.76452
G1 X119.376 Y72.267 F7800.000
G1 X121.748 Y72.808 F1080.000 E1.82960
G1 X122.803 Y75.000 E1.89469
G1 X121.748 Y77.192 E1.95977
G1 X119.376 Y77.733 E2.02485
G1 X117.474 Y76.216 E2.08993
G1 X117.474 Y73.784 E2.15502
G1 X119.294 Y72.332 E2.21730
G1 F3600.000 E1.01730
G92 E0
G1 X112.035 Y88.387 F7800.000
G1 F3600.000 E1.20000
G1 X113.371 Y90.700 F1080.000 E1.27145
G1 X112.035 Y93.013 E1.34291
G1 X109.365 Y93.013 E1.41436
G1 X108.029 Y90.700 E1.48581
G1 X109.365 Y88.387 E1.55727
G1 X111.931 Y88.387 E1.62593
G1 X112.393 Y87.768 F7800.000
G1 X109.007 Y87.768 F1080.000 E1.71652
G1 X107.314 Y90.700 E1.80711
G1 X109.007 Y93.632 E1.89770
G1 X110.008 Y93.632 E1.92447
G1 X107.013 Y95.808 E2.02349
G1 X102.425 Y97.851 E2.15787
G1 X97.511 Y98.895 E2.29226
G1 X92.489 Y98.895 E2.42664
G1 X87.575 Y97.851 E2.56102
G1 X82.987 Y95.808 E2.69541
G1 X79.992 Y93.632 E2.79443
G1 X80.993 Y93.632 E2.82120
G1 X82.686 Y90.700 E2.91179
G1 X80.993 Y87.768 E3.00238
G1 X77.607 Y87.768 E3.09297
G1 X76.331 Y89.977 E3.16123
G1 X75.562 Y89.123 E3.19199
G1 X73.050 Y84.773 E3.32638
G1 X72.810 Y84.032 E3.34721
G1 X65.968 Y84.032 E3.53025
G1 X65.968 Y65.968 E4.01355
G1 X72.810 Y65.968 E4.19660
G1 X73.050 Y65.227 E4.21742
G1 X75.562 Y60.877 E4.35181
G1 X76.331 Y60.023 E4.38257
G1 X77.607 Y62.232 E4.45083
G1 X80.993 Y62.232 E4.54142
G1 X82.686 Y59.300 E4.63201
G1 X80.993 Y56.368 E4.72260
G1 X79.992 Y56.368 E4.74937
G1 X82.987 Y54.192 E4.84839
G1 X87.575 Y52.149 E4.98278
G1 X92.489 Y51.105 E5.11716
G1 X97.511 Y51.105 E5.25154
G1 X102.425 Y52.149 E5.38593
G1 X107.013 Y54.192 E5.52031
G1 X110.008 Y56.368 E5.61933
G1 X109.007 Y56.368 E5.64610
G1 X107.314 Y59.300 E5.73669
G1 X109.007 Y62.232 E5.82728
G1 X112.393 Y62.232 E5.91787
G1 X113.669 Y60.023 E5.98613
G1 X114.438 Y60.877 E6.01690
G1 X116.950 Y65.227 E6.15128
G1 X117.190 Y65.968 E6.17211
G1 X124.032 Y65.968 E6.35516
G1 X124.032 Y84.032 E6.83845
G1 X117.190 Y84.032 E7.02150
G1 X116.950 Y84.773 E7.04233
G1 X114.438 Y89.123 E7.17671
G1 X113.669 Y89.977 E7.20748
G1 X112.445 Y87.858 E7.27294
G1 F3600.000 E6.07294
G92 E0
G1 X114.942 Y89.489 F7800.000
G1 F3600.000 E1.20000
G1 X111.494 Y93.318 F1080.000 E1.33787
G1 X107.325 Y96.347 E1.47574
G1 X102.617 Y98.443 E1.61360
G1 X97.577 Y99.515 E1.75147
G1 X92.423 Y99.515 E1.88934
G1 X87.383 Y98.443 E2.02721
G1 X82.675 Y96.347 E2.16508
G1 X78.506 Y93.318 E2.30294
G1 X75.058 Y89.489 E2.44081
G1 X72.481 Y85.026 E2.57868
G1 X72.360 Y84.652 E2.58921
G1 X65.348 Y84.652 E2.77679
G1 X65.348 Y65.348 E3.29323
G1 X72.360 Y65.348 E3.48081
G1 X72.481 Y64.974 E3.49134
G1 X75.058 Y60.511 E3.62921
G1 X78.506 Y56.682 E3.76707
G1 X82.675 Y53.653 E3.90494
G1 X87.383 Y51.557 E4.04281
G1 X92.423 Y50.485 E4.18068
G1 X97.577 Y50.485 E4.31855
G1 X102.617 Y51.557 E4.45641
G1 X107.325 Y53.653 E4.59428
G1 X111.494 Y56.682 E4.73215
G1 X114.942 Y60.511 E4.87002
G1 X117.519 Y64.974 E5.00789
G1 X117.640 Y65.348 E5.01841
G1 X124.652 Y65.348 E5.20600
G1 X124.652 Y84.652 E5.72243
G1 X117.640 Y84.652 E5.91002
G1 X117.519 Y85.026 E5.92054
G1 X114.994 Y89.398 E6.05562
G1 X114.183 Y88.864 F7800.000
G1 X112.943 Y87.624 F2160.000 E6.10336
G1 X112.663 Y87.345 F7800.000
G1 X106.648 Y81.330 F2160.000 E6.33491
G1 X106.972 Y80.768 F7800.000
G1 X114.507 Y88.303 F2160.000 E6.62496
G1 X114.831 Y87.741 F7800.000
G1 X107.272 Y80.182 F2160.000 E6.91594
G1 X107.490 Y79.513 F7800.000
G1 X115.156 Y87.179 F2160.000 E7.21104
G1 X115.481 Y86.617 F7800.000
G1 X107.708 Y78.844 F2160.000 E7.51026
G1 X107.924 Y78.175 F7800.000
G1 X115.804 Y86.055 F2160.000 E7.81360
G1 X116.129 Y85.493 F7800.000
G1 X108.117 Y77.482 F2160.000 E8.12201
G1 X108.202 Y76.679 F7800.000
G1 X116.454 Y84.931 F2160.000 E8.43966
G1 X116.712 Y84.303 F7800.000
G1 X108.286 Y75.877 F2160.000 E8.76402
G1 X108.370 Y75.076 F7800.000
G1 X116.929 Y83.635 F2160.000 E9.09349
G1 X117.791 Y83.610 F7800.000
G1 X108.330 Y74.149 F2160.000 E9.45768
G1 X108.226 Y73.158 F7800.000
G1 X118.677 Y83.610 F2160.000 E9.85999
G1 X119.563 Y83.610 F7800.000
G1 X108.122 Y72.169 F2160.000 E10.30043
G1 X107.758 Y70.918 F7800.000
G1 X120.450 Y83.610 F2160.000 E10.78901
G1 X121.336 Y83.610 F7800.000
G1 X107.332 Y69.605 F2160.000 E11.32812
G1 X106.319 Y67.706 F7800.000
G1 X122.223 Y83.609 F2160.000 E11.94032
G1 X123.109 Y83.610 F7800.000
G1 X116.417 Y76.918 F2160.000 E12.19793
G1 X116.432 Y76.934 F7800.000
G1 X91.259 Y51.761 F2160.000 E13.16696
G1 X90.529 Y51.915 F7800.000
G1 X102.143 Y63.529 F2160.000 E13.61403
G1 X100.470 Y62.743 F7800.000
G1 X89.798 Y52.071 F2160.000 E14.02487
G1 X89.066 Y52.227 F7800.000
G1 X99.028 Y62.188 F2160.000 E14.40833
G1 X97.902 Y61.949 F7800.000
G1 X88.335 Y52.382 F2160.000 E14.77659
G1 X87.605 Y52.537 F7800.000
G1 X96.777 Y61.709 F2160.000 E15.12967
G1 X95.857 Y61.676 F7800.000
G1 X86.986 Y52.805 F2160.000 E15.47115
G1 X86.372 Y53.078 F7800.000
G1 X94.970 Y61.676 F2160.000 E15.80212
G1 X94.084 Y61.675 F7800.000
G1 X85.760 Y53.351 F2160.000 E16.12257
G1 X85.146 Y53.624 F7800.000
G1 X93.299 Y61.777 F2160.000 E16.43641
G1 X92.568 Y61.932 F7800.000
G1 X84.533 Y53.897 F2160.000 E16.74573
G1 X83.919 Y54.170 F7800.000
G1 X91.837 Y62.088 F2160.000 E17.05052
G1 X91.106 Y62.243 F7800.000
G1 X83.307 Y54.443 F2160.000 E17.35077
G1 X82.760 Y54.783 F7800.000
G1 X90.475 Y62.498 F2160.000 E17.64779
G1 X89.862 Y62.771 F7800.000
G1 X82.246 Y55.156 F2160.000 E17.94095
G1 X81.732 Y55.529 F7800.000
G1 X89.248 Y63.045 F2160.000 E18.23027
G1 X88.636 Y63.317 F7800.000
G1 X81.543 Y56.224 F2160.000 E18.50331
G1 X82.753 Y58.322 F7800.000
G1 X88.084 Y63.652 F2160.000 E18.70851
G1 X87.570 Y64.025 F7800.000
G1 X83.001 Y59.456 F2160.000 E18.88440
G1 X82.677 Y60.017 F7800.000
G1 X87.057 Y64.397 F2160.000 E19.05303
G1 X86.544 Y64.771 F7800.000
G1 X82.352 Y60.579 F2160.000 E19.21438
G1 X82.027 Y61.141 F7800.000
G1 X86.043 Y65.156 F2160.000 E19.36894
G1 X85.622 Y65.623 F7800.000
G1 X81.703 Y61.703 F2160.000 E19.51983
G1 X81.379 Y62.265 F7800.000
G1 X85.203 Y66.089 F2160.000 E19.66704
G1 X84.783 Y66.555 F7800.000
G1 X80.882 Y62.655 F2160.000 E19.81720
G1 X79.996 Y62.655 F7800.000
G1 X84.363 Y67.022 F2160.000 E19.98531
G1 X84.001 Y67.547 F7800.000
G1 X79.109 Y62.655 F2160.000 E20.17360
G1 X78.223 Y62.655 F7800.000
G1 X83.677 Y68.108 F2160.000 E20.38353
G1 X83.352 Y68.670 F7800.000
G1 X77.337 Y62.655 F2160.000 E20.61509
G1 X77.058 Y62.376 F7800.000
G1 X75.817 Y61.135 F2160.000 E20.66283
G1 X75.493 Y61.697 F7800.000
G1 X83.027 Y69.232 F2160.000 E20.95288
G1 X82.728 Y69.818 F7800.000
G1 X75.169 Y62.259 F2160.000 E21.24385
G1 X74.844 Y62.821 F7800.000
G1 X82.510 Y70.487 F2160.000 E21.53895
G1 X82.293 Y71.156 F7800.000
G1 X74.520 Y63.383 F2160.000 E21.83817
G1 X74.195 Y63.945 F7800.000
G1 X82.075 Y71.825 F2160.000 E22.14151
G1 X81.883 Y72.518 F7800.000
G1 X73.871 Y64.507 F2160.000 E22.44992
G1 X73.546 Y65.069 F7800.000
G1 X81.798 Y73.320 F2160.000 E22.76758
G1 X81.714 Y74.123 F7800.000
G1 X73.288 Y65.697 F2160.000 E23.09193
G1 X73.071 Y66.365 F7800.000
G1 X81.630 Y74.924 F2160.000 E23.42140
G1 X81.670 Y75.851 F7800.000
G1 X72.209 Y66.390 F2160.000 E23.78559
G1 X71.323 Y66.390 F7800.000
G1 X81.774 Y76.841 F2160.000 E24.18791
G1 X81.878 Y77.832 F7800.000
G1 X70.436 Y66.390 F2160.000 E24.62835
G1 X69.550 Y66.390 F7800.000
G1 X82.242 Y79.082 F2160.000 E25.11692
G1 X82.669 Y80.395 F7800.000
G1 X68.664 Y66.390 F2160.000 E25.65603
G1 X67.777 Y66.390 F7800.000
G1 X83.681 Y82.294 F2160.000 E26.26824
G1 X80.756 Y87.345 F7800.000
G1 X71.653 Y78.242 F2160.000 E26.61866
G1 X72.374 Y78.078 F7800.000
G1 X92.769 Y98.473 F2160.000 E27.40377
G1 X93.656 Y98.473 F7800.000
G1 X72.683 Y77.500 F2160.000 E28.21113
G1 X72.971 Y76.901 F7800.000
G1 X94.542 Y98.473 F2160.000 E29.04152
G1 X95.429 Y98.473 F7800.000
G1 X73.259 Y76.303 F2160.000 E29.89494
G1 X73.547 Y75.705 F7800.000
G1 X96.315 Y98.473 F2160.000 E30.77138
G1 X97.201 Y98.473 F7800.000
G1 X73.835 Y75.107 F2160.000 E31.67086
G1 X73.576 Y73.961 F7800.000
G1 X98.010 Y98.395 F2160.000 E32.61142
G1 X98.740 Y98.240 F7800.000
G1 X72.753 Y72.252 F2160.000 E33.61181
G1 X72.321 Y71.821 F7800.000
G1 X66.891 Y66.391 F2160.000 E33.82085
G1 X66.390 Y66.775 F7800.000
G1 X71.173 Y71.558 F2160.000 E34.00496
G1 X70.025 Y71.296 F7800.000
G1 X66.390 Y67.662 F2160.000 E34.14487
G1 X66.390 Y68.548 F7800.000
G1 X69.099 Y71.258 F2160.000 E34.24915
G1 X68.607 Y71.650 F7800.000
G1 X66.391 Y69.434 F2160.000 E34.33446
G1 X66.390 Y70.321 F7800.000
G1 X68.113 Y72.044 F2160.000 E34.40078
G1 X67.620 Y72.437 F7800.000
G1 X66.390 Y71.207 F2160.000 E34.44812
G1 X66.390 Y72.094 F7800.000
G1 X67.127 Y72.831 F2160.000 E34.47649
G1 X66.390 Y77.411 F7800.000
G1 X72.589 Y83.610 F2160.000 E34.71509
G1 X71.702 Y83.610 F7800.000
G1 X66.390 Y78.298 F2160.000 E34.91958
G1 X66.390 Y79.184 F7800.000
G1 X70.816 Y83.610 F2160.000 E35.08995
G1 X69.930 Y83.610 F7800.000
G1 X66.390 Y80.070 F2160.000 E35.22619
G1 X66.390 Y80.957 F7800.000
G1 X69.043 Y83.610 F2160.000 E35.32832
G1 X68.157 Y83.610 F7800.000
G1 X66.390 Y81.843 F2160.000 E35.39633
G1 X66.390 Y82.729 F7800.000
G1 X67.271 Y83.610 F2160.000 E35.43023
G1 X68.224 Y78.359 F7800.000
G1 X77.360 Y87.495 F2160.000 E35.78191
G1 X77.036 Y88.057 F7800.000
G1 X73.588 Y84.609 F2160.000 E35.91462
G1 X74.799 Y86.707 F7800.000
G1 X76.711 Y88.619 F2160.000 E35.98823
G1 X78.097 Y87.345 F7800.000
G1 X69.488 Y78.736 F2160.000 E36.31963
G1 X70.209 Y78.572 F7800.000
G1 X78.983 Y87.345 F2160.000 E36.65737
G1 X79.869 Y87.345 F7800.000
G1 X70.931 Y78.407 F2160.000 E37.00144
G1 F3600.000 E35.80144
G92 E0
G1 X82.236 Y88.825 F7800.000
G1 F3600.000 E1.20000
G1 X91.649 Y98.238 F2160.000 E1.56236
G1 X90.524 Y97.999 F7800.000
G1 X83.139 Y90.615 F2160.000 E1.84661
G1 X82.815 Y91.177 F7800.000
G1 X89.398 Y97.760 F2160.000 E2.10003
G1 X88.273 Y97.521 F7800.000
G1 X82.491 Y91.739 F2160.000 E2.32259
G1 X82.166 Y92.301 F7800.000
G1 X86.804 Y96.938 F2160.000 E2.50112
G1 X85.206 Y96.227 F7800.000
G1 X81.842 Y92.863 F2160.000 E2.63063
