; generated by Slic3r 0.7.3-dev on 2012-05-11 at 11:10:45

; layer_height = 0.3
; perimeters = 2
; solid_layers = 3
; fill_density = 1
; nozzle_diameter = 0.5
; filament_diameter = 2.9
; extrusion_multiplier = 0.94
; perimeter_speed = 30
; infill_speed = 90
; travel_speed = 130
; extrusion_width_ratio = 0
; scale = 1
; single wall width = 0.70mm

M104 S257 ; set temperature
M104 S0
M140 S115
M92 E335
G28
M190 S105
M140 S115
M109 S257 ; wait for temperature to be reached
G90 ; use absolute coordinates
G21 ; set units to millimeters
G92 E0 ; reset extrusion distance
M82 ; use absolute distances for extrusion
M107
G1 Z0.400 F7800.000
G1 X83.938 Y49.749
G1 F3600.000 E1.20000
G1 X84.088 Y49.569 F1080.000 E1.20655
G1 X84.248 Y49.399 E1.21307
G1 X84.418 Y49.239 E1.21959
G1 X84.778 Y48.949 E1.23251
G1 X85.158 Y48.689 E1.24538
G1 X85.558 Y48.459 E1.25827
G1 X85.978 Y48.279 E1.27104
G1 X86.418 Y48.129 E1.28403
G1 X86.648 Y48.069 E1.29067
G1 X87.328 Y47.959 E1.30992
G1 X87.788 Y47.939 E1.32278
G1 X96.768 Y47.959 E1.57371
G1 X97.248 Y48.029 E1.58727
G1 X97.948 Y48.219 E1.60753
G1 X98.178 Y48.309 E1.61444
G1 X98.618 Y48.509 E1.62794
G1 X98.828 Y48.629 E1.63470
G1 X99.418 Y49.039 E1.65478
G1 X102.798 Y52.039 E1.78106
G1 X102.968 Y52.209 E1.78778
G1 X103.428 Y52.789 E1.80846
G1 X103.558 Y52.989 E1.81513
G1 X103.798 Y53.419 E1.82889
G1 X103.898 Y53.639 E1.83564
G1 X104.068 Y54.099 E1.84934
G1 X104.138 Y54.339 E1.85633
G1 X104.238 Y54.819 E1.87003
G1 X106.768 Y96.039 E3.02401
G1 X106.758 Y96.499 E3.03686
G1 X106.658 Y97.179 E3.05607
G1 X106.538 Y97.619 E3.06881
G1 X106.468 Y97.829 E3.07500
G1 X106.188 Y98.459 E3.09426
G1 X106.078 Y98.659 E3.10064
G1 X105.828 Y99.039 E3.11335
G1 X105.548 Y99.399 E3.12609
G1 X105.068 Y99.879 E3.14506
G1 X104.888 Y100.029 E3.15161
G1 X104.328 Y100.419 E3.17068
G1 X103.928 Y100.629 E3.18330
G1 X103.508 Y100.809 E3.19607
G1 X103.068 Y100.949 E3.20897
G1 X102.628 Y101.049 E3.22158
G1 X101.948 Y101.119 E3.24068
G1 X101.488 Y101.109 E3.25354
G1 X101.038 Y101.069 E3.26616
G1 X100.588 Y100.979 E3.27899
G1 X100.148 Y100.849 E3.29181
G1 X99.518 Y100.589 E3.31085
G1 X99.318 Y100.479 E3.31723
G1 X98.748 Y100.109 E3.33622
G1 X98.238 Y99.659 E3.35522
G1 X84.088 Y85.509 E3.91439
G1 X83.768 Y85.129 E3.92828
G1 X83.628 Y84.929 E3.93510
G1 X83.378 Y84.509 E3.94875
G1 X83.268 Y84.289 E3.95563
G1 X83.078 Y83.839 E3.96928
G1 X82.938 Y83.369 E3.98298
G1 X82.838 Y82.879 E3.99695
G1 X82.808 Y82.639 E4.00371
G1 X82.808 Y52.479 E4.84647
G1 X82.918 Y51.799 E4.86572
G1 X82.978 Y51.569 E4.87236
G1 X83.128 Y51.129 E4.88535
G1 X83.308 Y50.709 E4.89812
G1 X83.538 Y50.309 E4.91101
G1 X83.798 Y49.929 E4.92388
G1 X83.874 Y49.832 E4.92733
G1 F3600.000 E3.72733
G92 E0
G1 X90.845 Y55.822 F7800.000
G1 F3600.000 E1.20000
G1 X94.052 Y55.822 F1080.000 E1.28961
G1 X95.655 Y58.599 E1.37923
G1 X94.052 Y61.377 E1.46884
G1 X90.845 Y61.377 E1.55845
G1 X89.241 Y58.599 E1.64807
G1 X90.793 Y55.912 E1.73476
G1 X91.203 Y56.441 F7800.000
G1 X93.694 Y56.441 F1080.000 E1.80439
G1 X94.940 Y58.599 E1.87401
G1 X93.694 Y60.757 E1.94364
G1 X91.203 Y60.757 E2.01326
G1 X89.957 Y58.599 E2.08289
G1 X91.150 Y56.532 E2.14959
G1 F3600.000 E0.94959
G92 E0
G1 X90.792 Y64.722 F7800.000
G1 F3600.000 E1.20000
G1 X93.289 Y65.292 F1080.000 E1.27157
G1 X94.400 Y67.599 E1.34314
G1 X93.289 Y69.907 E1.41471
G1 X90.792 Y70.477 E1.48628
G1 X88.789 Y68.880 E1.55785
G1 X88.789 Y66.319 E1.62942
G1 X90.710 Y64.787 E1.69807
G1 X90.639 Y64.051 F7800.000
G1 X88.416 Y65.824 F1080.000 E1.77750
G1 X88.416 Y53.567 E2.11998
G1 X95.679 Y53.567 E2.32292
G1 X95.679 Y54.933 E2.36109
G1 X97.764 Y56.596 E2.43563
G1 X98.681 Y56.387 E2.46189
G1 X98.681 Y66.579 E2.74669
G1 X98.611 Y66.793 E2.75298
G1 X97.475 Y77.599 E3.05659
G1 X98.611 Y88.405 E3.36020
G1 X100.385 Y93.866 E3.52064
G1 X88.416 Y81.897 E3.99363
G1 X88.416 Y69.375 E4.34353
G1 X90.639 Y71.147 E4.42296
G1 X93.717 Y70.444 E4.51120
G1 X95.088 Y67.599 E4.59944
G1 X93.717 Y64.754 E4.68769
G1 X90.741 Y64.075 E4.77301
G1 F3600.000 E3.57301
G92 E0
G1 X99.220 Y66.923 F7800.000
G1 F3600.000 E1.20000
G1 X98.098 Y77.599 F1080.000 E1.49997
G1 X99.220 Y88.276 E1.79994
G1 X101.772 Y96.128 E2.03067
G1 X87.797 Y82.153 E2.58292
G1 X87.797 Y52.948 E3.39902
G1 X96.298 Y52.948 E3.63657
G1 X96.298 Y54.635 E3.68372
G1 X97.917 Y55.926 E3.74159
G1 X99.300 Y55.610 E3.78122
G1 X99.300 Y66.677 E4.09046
G1 X99.253 Y66.823 E4.09476
G1 X98.258 Y66.566 F7800.000
G1 X93.491 Y61.799 F2160.000 E4.28372
G1 X94.270 Y61.700 F7800.000
G1 X98.258 Y65.689 F2160.000 E4.44181
G1 X98.258 Y64.811 F7800.000
G1 X94.591 Y61.143 F2160.000 E4.58717
G1 X94.912 Y60.587 F7800.000
G1 X98.258 Y63.933 F2160.000 E4.71979
G1 X98.258 Y63.055 F7800.000
G1 X95.234 Y60.030 F2160.000 E4.83967
G1 X95.555 Y59.474 F7800.000
G1 X98.258 Y62.177 F2160.000 E4.94682
G1 X98.258 Y61.299 F7800.000
G1 X95.876 Y58.917 F2160.000 E5.04124
G1 X96.085 Y58.248 F7800.000
G1 X98.258 Y60.422 F2160.000 E5.12739
G1 X98.258 Y59.544 F7800.000
G1 X94.886 Y56.171 F2160.000 E5.26108
G1 X94.114 Y55.399 F7800.000
G1 X92.704 Y53.989 F2160.000 E5.31696
G1 X91.826 Y53.989 F7800.000
G1 X93.236 Y55.399 F2160.000 E5.37285
G1 X92.358 Y55.399 F7800.000
G1 X90.948 Y53.989 F2160.000 E5.42874
G1 X90.070 Y53.989 F7800.000
G1 X91.481 Y55.399 F2160.000 E5.48463
G1 X90.654 Y55.451 F7800.000
G1 X89.193 Y53.989 F2160.000 E5.54258
G1 X88.839 Y54.513 F7800.000
G1 X90.333 Y56.008 F2160.000 E5.60181
G1 X90.012 Y56.564 F7800.000
G1 X88.839 Y55.391 F2160.000 E5.64831
G1 X88.839 Y56.269 F7800.000
G1 X89.691 Y57.121 F2160.000 E5.68208
G1 F3600.000 E4.48208
G92 E0
G1 X88.985 Y59.926 F7800.000
G1 F3600.000 E1.20000
G1 X89.910 Y60.851 F2160.000 E1.23667
G1 X88.839 Y60.658 F7800.000
G1 X92.077 Y63.896 F2160.000 E1.36502
G1 X93.214 Y64.156 F7800.000
G1 X90.857 Y61.799 F2160.000 E1.45844
G1 X91.735 Y61.799 F7800.000
G1 X98.066 Y68.129 F2160.000 E1.70935
G1 X98.149 Y67.335 F7800.000
G1 X92.613 Y61.799 F2160.000 E1.92878
G1 F3600.000 E0.72878
G92 E0
G1 X90.939 Y63.637 F7800.000
G1 F3600.000 E1.20000
G1 X88.839 Y61.536 F2160.000 E1.28326
G1 X88.839 Y62.414 F7800.000
G1 X90.305 Y63.880 F2160.000 E1.34137
G1 X89.816 Y64.269 F7800.000
G1 X88.839 Y63.292 F2160.000 E1.38011
G1 F3600.000 E0.18011
G92 E0
G1 X94.758 Y65.700 F7800.000
G1 F3600.000 E1.20000
G1 X97.982 Y68.924 F2160.000 E1.32778
G1 X97.898 Y69.718 F7800.000
G1 X95.574 Y67.393 F2160.000 E1.41992
G1 X95.294 Y67.992 F7800.000
G1 X97.815 Y70.512 F2160.000 E1.51984
G1 X97.732 Y71.307 F7800.000
G1 X95.009 Y68.584 F2160.000 E1.62775
G1 X94.724 Y69.177 F7800.000
G1 X97.648 Y72.101 F2160.000 E1.74367
G1 X97.565 Y72.895 F7800.000
G1 X94.438 Y69.769 F2160.000 E1.86759
G1 X94.153 Y70.362 F7800.000
G1 X97.481 Y73.690 F2160.000 E1.99950
G1 X97.398 Y74.484 F7800.000
G1 X93.745 Y70.831 F2160.000 E2.14428
G1 X93.030 Y70.995 F7800.000
G1 X97.314 Y75.278 F2160.000 E2.31408
G1 X97.231 Y76.073 F7800.000
G1 X92.316 Y71.158 F2160.000 E2.50889
G1 X91.601 Y71.321 F7800.000
G1 X97.147 Y76.867 F2160.000 E2.72872
G1 X97.064 Y77.661 F7800.000
G1 X90.886 Y71.484 F2160.000 E2.97357
G1 X89.578 Y71.054 F7800.000
G1 X97.135 Y78.611 F2160.000 E3.27310
G1 X97.238 Y79.592 F7800.000
G1 X88.839 Y71.192 F2160.000 E3.60602
G1 X88.839 Y72.070 F7800.000
G1 X97.341 Y80.572 F2160.000 E3.94304
G1 X97.444 Y81.553 F7800.000
G1 X88.839 Y72.948 F2160.000 E4.28414
G1 X88.839 Y73.826 F7800.000
G1 X97.547 Y82.534 F2160.000 E4.62932
G1 X97.651 Y83.515 F7800.000
G1 X88.839 Y74.703 F2160.000 E4.97860
G1 X88.839 Y75.581 F7800.000
G1 X97.754 Y84.496 F2160.000 E5.33196
G1 X97.857 Y85.477 F7800.000
G1 X88.839 Y76.459 F2160.000 E5.68940
G1 X88.839 Y77.337 F7800.000
G1 X97.960 Y86.458 F2160.000 E6.05094
G1 X98.063 Y87.439 F7800.000
G1 X88.839 Y78.215 F2160.000 E6.41656
G1 X88.839 Y79.093 F7800.000
G1 X98.166 Y88.420 F2160.000 E6.78626
G1 X98.487 Y89.619 F7800.000
G1 X88.839 Y79.970 F2160.000 E7.16869
G1 X88.839 Y80.848 F7800.000
G1 X98.910 Y90.919 F2160.000 E7.56787
G1 F3600.000 E6.36787
G92 E0
G1 X98.258 Y58.666 F7800.000
G1 F3600.000 E1.20000
G1 X93.582 Y53.989 F2160.000 E1.38536
G1 X94.460 Y53.989 F7800.000
G1 X95.256 Y54.786 F2160.000 E1.41694
G1 F3600.000 E0.21694
G92 E0
G1 X97.516 Y57.046 F7800.000
G1 F3600.000 E1.20000
G1 X98.258 Y57.788 F2160.000 E1.22940
M106 S255
G1 F3600.000 E0.02940
G92 E0
G1 Z0.700 F7800.000
G1 X95.655 Y58.599
G1 F3600.000 E1.20000
G1 X94.052 Y61.377 F1730.625 E1.28961
G1 X90.845 Y61.377 E1.37923
G1 X89.241 Y58.599 E1.46884
G1 X90.845 Y55.822 E1.55845
G1 X94.052 Y55.822 E1.64807
G1 X95.603 Y58.509 E1.73476
G1 X94.940 Y58.599 F7800.000
G1 X93.694 Y60.757 F1730.625 E1.80439
G1 X91.203 Y60.757 E1.87401
G1 X89.957 Y58.599 E1.94364
G1 X91.203 Y56.441 E2.01326
G1 X93.694 Y56.441 E2.08289
G1 X94.888 Y58.509 E2.14959
G1 F3600.000 E0.94959
G92 E0
G1 X93.289 Y65.292 F7800.000
G1 F3600.000 E1.20000
G1 X94.400 Y67.599 F1730.625 E1.27157
G1 X93.289 Y69.907 E1.34314
G1 X90.792 Y70.477 E1.41471
G1 X88.789 Y68.880 E1.48628
G1 X88.789 Y66.319 E1.55785
G1 X90.792 Y64.722 E1.62942
G1 X93.187 Y65.268 E1.69807
G1 X93.717 Y64.754 F7800.000
G1 X90.639 Y64.051 F1730.625 E1.78631
G1 X88.416 Y65.824 E1.86574
G1 X88.416 Y53.567 E2.20823
G1 X95.679 Y53.567 E2.41116
G1 X95.679 Y54.933 E2.44933
G1 X97.764 Y56.596 E2.52387
G1 X98.681 Y56.387 E2.55013
G1 X98.681 Y66.579 E2.83493
G1 X98.611 Y66.793 E2.84122
G1 X97.475 Y77.599 E3.14483
G1 X98.611 Y88.405 E3.44844
G1 X100.385 Y93.866 E3.60889
G1 X88.416 Y81.897 E4.08187
G1 X88.416 Y69.375 E4.43177
G1 X90.639 Y71.147 E4.51120
G1 X93.717 Y70.444 E4.59944
G1 X95.088 Y67.599 E4.68769
G1 X93.763 Y64.848 E4.77301
G1 F3600.000 E3.57301
G92 E0
G1 X99.300 Y66.677 F7800.000
G1 F3600.000 E1.20000
G1 X99.220 Y66.923 F1730.625 E1.20722
G1 X98.098 Y77.599 E1.50719
G1 X99.220 Y88.276 E1.80716
G1 X101.772 Y96.128 E2.03788
G1 X87.797 Y82.153 E2.59014
G1 X87.797 Y52.948 E3.40624
G1 X96.298 Y52.948 E3.64379
G1 X96.298 Y54.635 E3.69093
G1 X97.917 Y55.926 E3.74881
G1 X99.300 Y55.610 E3.78844
G1 X99.300 Y66.573 E4.09476
G1 X98.149 Y66.944 F7800.000
G1 X93.982 Y71.110 F3461.250 E4.26354
G1 X94.297 Y70.795 F7800.000
G1 X88.839 Y76.254 F3461.250 E4.48464
G1 X88.839 Y77.145 F7800.000
G1 X98.044 Y67.939 F3461.250 E4.85752
G1 X97.940 Y68.935 F7800.000
G1 X88.839 Y78.035 F3461.250 E5.22617
G1 X88.839 Y78.926 F7800.000
G1 X97.835 Y69.930 F3461.250 E5.59058
G1 X97.730 Y70.926 F7800.000
G1 X88.839 Y79.817 F3461.250 E5.95074
G1 X88.839 Y80.708 F7800.000
G1 X97.626 Y71.921 F3461.250 E6.30668
G1 X97.521 Y72.916 F7800.000
G1 X88.838 Y81.598 F3461.250 E6.65837
G1 X89.164 Y82.163 F7800.000
G1 X97.416 Y73.912 F3461.250 E6.99262
G1 X97.312 Y74.907 F7800.000
G1 X89.610 Y82.609 F3461.250 E7.30458
G1 X90.055 Y83.054 F7800.000
G1 X97.207 Y75.903 F3461.250 E7.59427
G1 X97.102 Y76.898 F7800.000
G1 X90.501 Y83.500 F3461.250 E7.86168
G1 X90.946 Y83.945 F7800.000
G1 X97.091 Y77.800 F3461.250 E8.11059
G1 X97.176 Y78.606 F7800.000
G1 X91.392 Y84.390 F3461.250 E8.34489
G1 X91.837 Y84.836 F7800.000
G1 X97.261 Y79.412 F3461.250 E8.56458
G1 X97.346 Y80.219 F7800.000
G1 X92.283 Y85.281 F3461.250 E8.76966
G1 X92.728 Y85.727 F7800.000
G1 X97.431 Y81.025 F3461.250 E8.96013
G1 X97.515 Y81.830 F7800.000
G1 X93.173 Y86.172 F3461.250 E9.13600
G1 X93.619 Y86.617 F7800.000
G1 X97.599 Y82.636 F3461.250 E9.29725
G1 X97.684 Y83.442 F7800.000
G1 X94.064 Y87.063 F3461.250 E9.44389
G1 X94.510 Y87.508 F7800.000
G1 X97.769 Y84.249 F3461.250 E9.57592
G1 X97.854 Y85.055 F7800.000
G1 X94.955 Y87.954 F3461.250 E9.69334
G1 X95.400 Y88.399 F7800.000
G1 X97.939 Y85.861 F3461.250 E9.79615
G1 X98.023 Y86.667 F7800.000
G1 X95.846 Y88.845 F3461.250 E9.88435
G1 X96.291 Y89.290 F7800.000
G1 X98.108 Y87.473 F3461.250 E9.95794
G1 X98.193 Y88.279 F7800.000
G1 X96.737 Y89.735 F3461.250 E10.01692
G1 X97.182 Y90.181 F7800.000
G1 X98.402 Y88.962 F3461.250 E10.06632
G1 X98.620 Y89.633 F7800.000
G1 X97.627 Y90.626 F3461.250 E10.10652
G1 X98.073 Y91.071 F7800.000
G1 X98.838 Y90.306 F3461.250 E10.13753
G1 X99.057 Y90.978 F7800.000
G1 X98.518 Y91.517 F3461.250 E10.15935
G1 F3600.000 E8.95935
G92 E0
G1 X88.839 Y75.363 F7800.000
G1 F3600.000 E1.20000
G1 X93.143 Y71.059 F3461.250 E1.37435
G1 X91.988 Y71.322 F7800.000
G1 X88.838 Y74.472 F3461.250 E1.50194
G1 X88.838 Y73.581 F7800.000
G1 X90.834 Y71.585 F3461.250 E1.58277
G1 X90.253 Y71.277 F7800.000
G1 X88.839 Y72.691 F3461.250 E1.64003
G1 X88.839 Y71.800 F7800.000
G1 X89.757 Y70.882 F3461.250 E1.67721
G1 X89.261 Y70.487 F7800.000
G1 X88.839 Y70.909 F3461.250 E1.69432
G1 F3600.000 E0.49432
G92 E0
G1 X94.809 Y69.392 F7800.000
G1 F3600.000 E1.20000
G1 X98.258 Y65.943 F3461.250 E1.33970
G1 X98.258 Y65.052 F7800.000
G1 X95.557 Y67.753 F3461.250 E1.44909
G1 X95.268 Y67.152 F7800.000
G1 X98.258 Y64.162 F3461.250 E1.57022
G1 X98.259 Y63.271 F7800.000
G1 X94.979 Y66.551 F3461.250 E1.70308
G1 X94.689 Y65.950 F7800.000
G1 X98.258 Y62.380 F3461.250 E1.84767
G1 X98.258 Y61.490 F7800.000
G1 X94.399 Y65.349 F3461.250 E2.00399
G1 X94.110 Y64.747 F7800.000
G1 X98.258 Y60.599 F3461.250 E2.17203
G1 X98.258 Y59.708 F7800.000
G1 X93.626 Y64.340 F3461.250 E2.35966
G1 X92.901 Y64.174 F7800.000
G1 X98.258 Y58.817 F3461.250 E2.57667
G1 X98.258 Y57.926 F7800.000
G1 X94.515 Y61.669 F3461.250 E2.72831
G1 X94.385 Y61.799 F7800.000
G1 X92.175 Y64.009 F3461.250 E2.81782
G1 X91.450 Y63.843 F7800.000
G1 X93.494 Y61.799 F3461.250 E2.90063
G1 X92.604 Y61.799 F7800.000
G1 X90.725 Y63.677 F3461.250 E2.97673
G1 X90.822 Y61.799 F7800.000
G1 X88.839 Y63.783 F3461.250 E3.05708
G1 X88.838 Y64.673 F7800.000
G1 X91.713 Y61.799 F3461.250 E3.17351
G1 X90.409 Y61.322 F7800.000
G1 X88.839 Y62.892 F3461.250 E3.23710
G1 X88.839 Y62.001 F7800.000
G1 X90.083 Y60.757 F3461.250 E3.28749
G1 X89.757 Y60.192 F7800.000
G1 X88.839 Y61.110 F3461.250 E3.32468
G1 X88.839 Y60.219 F7800.000
G1 X89.431 Y59.627 F3461.250 E3.34865
G1 F3600.000 E2.14865
G92 E0
G1 X88.839 Y57.547 F7800.000
G1 F3600.000 E1.20000
G1 X89.734 Y56.651 F3461.250 E1.23627
G1 X88.838 Y56.656 F7800.000
G1 X91.505 Y53.989 F3461.250 E1.34428
G1 X90.614 Y53.989 F7800.000
G1 X88.838 Y55.765 F3461.250 E1.41621
G1 X88.839 Y54.875 F7800.000
G1 X89.724 Y53.990 F3461.250 E1.45205
G1 X90.986 Y55.399 F7800.000
G1 X92.396 Y53.989 F3461.250 E1.50917
G1 X93.287 Y53.989 F7800.000
G1 X91.877 Y55.399 F3461.250 E1.56629
G1 X92.768 Y55.399 F7800.000
G1 X94.178 Y53.989 F3461.250 E1.62341
G1 X95.069 Y53.989 F7800.000
G1 X93.658 Y55.400 F3461.250 E1.68053
G1 X94.336 Y55.613 F7800.000
G1 X95.256 Y54.692 F3461.250 E1.71782
G1 X95.562 Y55.278 F7800.000
G1 X94.662 Y56.178 F3461.250 E1.75427
G1 X94.988 Y56.743 F7800.000
G1 X96.057 Y55.673 F3461.250 E1.79758
G1 X96.553 Y56.069 F7800.000
G1 X95.314 Y57.307 F3461.250 E1.84777
G1 X95.640 Y57.872 F7800.000
G1 X97.048 Y56.463 F3461.250 E1.90482
G1 X97.544 Y56.858 F7800.000
G1 X95.966 Y58.436 F3461.250 E1.96874
G1 X95.731 Y59.562 F7800.000
G1 X98.258 Y57.035 F3461.250 E2.07109
G1 F3600.000 E0.87109
G92 E0
G1 Z1.000 F7800.000
G1 X95.655 Y58.599
G1 F3600.000 E1.20000
G1 X94.052 Y61.377 F1715.199 E1.28961
G1 X90.845 Y61.377 E1.37923
G1 X89.241 Y58.599 E1.46884
G1 X90.845 Y55.822 E1.55845
G1 X94.052 Y55.822 E1.64807
G1 X95.603 Y58.509 E1.73476
G1 X94.940 Y58.599 F7800.000
G1 X93.694 Y60.757 F1715.199 E1.80439
G1 X91.203 Y60.757 E1.87401
G1 X89.957 Y58.599 E1.94364
G1 X91.203 Y56.441 E2.01326
G1 X93.694 Y56.441 E2.08289
G1 X94.888 Y58.509 E2.14959
G1 F3600.000 E0.94959
G92 E0
G1 X93.289 Y65.292 F7800.000
G1 F3600.000 E1.20000
G1 X94.400 Y67.599 F1715.199 E1.27157
G1 X93.289 Y69.907 E1.34314
G1 X90.792 Y70.477 E1.41471
G1 X88.789 Y68.880 E1.48628
G1 X88.789 Y66.319 E1.55785
G1 X90.792 Y64.722 E1.62942
G1 X93.187 Y65.268 E1.69807
G1 X93.717 Y64.754 F7800.000
G1 X90.639 Y64.051 F1715.199 E1.78631
G1 X88.416 Y65.824 E1.86574
G1 X88.416 Y53.567 E2.20823
G1 X95.679 Y53.567 E2.41116
G1 X95.679 Y54.933 E2.44933
G1 X97.764 Y56.596 E2.52387
G1 X98.681 Y56.387 E2.55013
G1 X98.681 Y66.579 E2.83493
G1 X98.611 Y66.793 E2.84122
G1 X97.475 Y77.599 E3.14483
G1 X98.611 Y88.405 E3.44844
G1 X100.385 Y93.866 E3.60889
G1 X88.416 Y81.897 E4.08187
G1 X88.416 Y69.375 E4.43177
G1 X90.639 Y71.147 E4.51120
G1 X93.717 Y70.444 E4.59944
